; generated by Slic3r 1.2.9 on 2018-09-20 at 15:01:03

; external perimeters extrusion width = 0.40mm
; perimeters extrusion width = 0.67mm
; infill extrusion width = 0.67mm
; solid infill extrusion width = 0.67mm
; top infill extrusion width = 0.67mm

M107
M190 S90 ; set bed temperature
M104 S230 ; set temperature
G28 ; home all axes
G1 Z5 F5000 ; lift nozzle

M109 S230 ; wait for temperature to be reached
G21 ; set units to millimeters
G90 ; use absolute coordinates
M82 ; use absolute distances for extrusion
G92 E0
G1 Z0.200 F7800.000
G1 X8.169 Y16.475 F7800.000
G1 X9.039 Y16.044 E0.03317 F1200.000
G1 X10.000 Y15.929 E0.06621
G1 X210.000 Y15.929 E6.89521
G1 X211.750 Y16.324 E6.95645
G1 X213.160 Y17.432 E7.01769 F1200.000
G1 X213.956 Y19.039 E7.07893
G1 X214.071 Y20.000 E7.11197
G1 X214.071 Y200.000 E13.25807
G1 X213.676 Y201.750 E13.31931
G1 X212.568 Y203.160 E13.38055
G1 X210.961 Y203.956 E13.44179
G1 X210.000 Y204.071 E13.47483
G1 X10.000 Y204.071 E20.30383
G1 X8.250 Y203.676 E20.36507
G1 X6.840 Y202.568 E20.42631
G1 X6.044 Y200.961 E20.48755
G1 X5.929 Y200.000 E20.52059
G1 X5.929 Y20.000 E26.66669
G1 X6.324 Y18.250 E26.72793
G1 X7.432 Y16.840 E26.78917
G1 X8.115 Y16.502 E26.81519
G1 X8.294 Y16.852 F7800.000
G1 X10.000 Y16.286 E26.87657 F1200.000
G1 X210.000 Y16.286 E33.70557
G1 X211.666 Y16.680 E33.76403
G1 X212.978 Y17.780 E33.82249 F1200.000
G1 X213.714 Y20.000 E33.90234
G1 X213.714 Y200.000 E40.04843
G1 X213.320 Y201.666 E40.10689
G1 X212.220 Y202.978 E40.16535
G1 X210.000 Y203.714 E40.24520
G1 X10.000 Y203.714 E47.07420
G1 X8.334 Y203.320 E47.13266
G1 X7.022 Y202.220 E47.19112
G1 X6.286 Y200.000 E47.27096
G1 X6.286 Y20.000 E53.41706
G1 X6.680 Y18.334 E53.47552
G1 X7.780 Y17.022 E53.53398
G1 X8.237 Y16.871 E53.55040
G1 X8.381 Y17.137 F7800.000
G1 X10.000 Y16.643 E53.60820 F1200.000
G1 X210.000 Y16.643 E60.43720
G1 X211.578 Y17.037 E60.49274
G1 X212.786 Y18.127 E60.54828 F1200.000
G1 X213.357 Y20.000 E60.61516
G1 X213.357 Y200.000 E66.76125
G1 X212.963 Y201.578 E66.81679
G1 X211.873 Y202.786 E66.87233
G1 X210.000 Y203.357 E66.93921
G1 X10.000 Y203.357 E73.76820
G1 X8.422 Y202.963 E73.82374
G1 X7.214 Y201.873 E73.87928
G1 X6.643 Y200.000 E73.94616
G1 X6.643 Y20.000 E80.09226
G1 X7.037 Y18.422 E80.14779
G1 X8.127 Y17.214 E80.20333
G1 X8.323 Y17.154 E80.21036
G1 E75.71036 F2700.00000
G92 E0
G1 X19.086 Y49.086 F7800.000
G1 E4.50000 F2700.00000
G1 X200.914 Y49.086 E10.70853 F1200.000
G1 X200.914 Y190.914 E15.55125
G1 X190.914 Y190.914 E15.89270
G1 X190.914 Y195.914 E16.06343
G1 X29.086 Y195.914 E21.58905
G1 X29.086 Y190.914 E21.75978
G1 X19.086 Y190.914 E22.10123
G1 X19.086 Y49.146 E26.94190
G1 X19.443 Y49.443 F7800.000
G1 X200.557 Y49.443 E33.12605 F1200.000
G1 X200.557 Y190.557 E37.94439
G1 X190.557 Y190.557 E38.28584
G1 X190.557 Y195.557 E38.45656
G1 X29.443 Y195.557 E43.95780
G1 X29.443 Y190.557 E44.12853
G1 X19.443 Y190.557 E44.46998
G1 X19.443 Y49.503 E49.28627
G1 X19.800 Y49.800 F7800.000
G1 X200.200 Y49.800 E55.44603 F1200.000
G1 X200.200 Y190.200 E60.23998
G1 X190.200 Y190.200 E60.58143
G1 X190.200 Y195.200 E60.75216
G1 X29.800 Y195.200 E66.22901
G1 X29.800 Y190.200 E66.39974
G1 X19.800 Y190.200 E66.74119
G1 X19.800 Y49.860 E71.53310
G1 X19.800 Y49.400 F7800.000
G1 X19.086 Y40.914 F7800.000
G1 X200.914 Y40.914 E77.74162 F1200.000
G1 X200.914 Y20.914 E78.42452
G1 X209.086 Y20.914 E78.70354
G1 X209.086 Y199.086 E84.78721
G1 X10.914 Y199.086 E91.55378
G1 X10.914 Y20.914 E97.63745
G1 X19.086 Y20.914 E97.91648
G1 X19.086 Y40.854 E98.59733
G1 X19.443 Y40.557 F7800.000
G1 X200.557 Y40.557 E104.78147 F1200.000
G1 X200.557 Y20.557 E105.46437
G1 X209.443 Y20.557 E105.76777
G1 X209.443 Y199.443 E111.87583
G1 X10.557 Y199.443 E118.66678
G1 X10.557 Y20.557 E124.77484
G1 X19.443 Y20.557 E125.07825
G1 X19.443 Y40.497 E125.75910
G1 X19.800 Y40.200 F7800.000
G1 X200.200 Y40.200 E131.91885 F1200.000
G1 X200.200 Y20.200 E132.60175
G1 X209.800 Y20.200 E132.92954
G1 X209.800 Y199.800 E139.06198
G1 X10.200 Y199.800 E145.87732
G1 X10.200 Y20.200 E152.00976
G1 X19.800 Y20.200 E152.33756
G1 X19.800 Y40.140 E153.01841
G1 X19.800 Y40.600 F7800.000
G1 X11.122 Y34.378 F7800.000
G1 X25.622 Y48.878 E153.71938 F1200.000
G1 X25.116 Y48.878 E153.73666
G1 X11.122 Y34.884 E154.41320
G1 X11.122 Y35.389 E154.43048
G1 X24.611 Y48.878 E155.08257
G1 X24.105 Y48.878 E155.09985
G1 X11.122 Y35.895 E155.72751
G1 X11.122 Y36.401 E155.74479
G1 X23.599 Y48.878 E156.34800
G1 X23.094 Y48.878 E156.36528
G1 X11.122 Y36.906 E156.94405
G1 X11.122 Y37.412 E156.96134
G1 X22.588 Y48.878 E157.51566
G1 X22.083 Y48.878 E157.53295
G1 X11.122 Y37.917 E158.06283
G1 X11.122 Y38.423 E158.08012
G1 X21.577 Y48.878 E158.58556
G1 X21.072 Y48.878 E158.60285
G1 X11.122 Y38.928 E159.08385
G1 X11.122 Y39.434 E159.10114
G1 X20.566 Y48.878 E159.55770
G1 X20.060 Y48.878 E159.57498
G1 X11.122 Y39.939 E160.00711
G1 X11.122 Y40.445 E160.02439
G1 X19.555 Y48.878 E160.43207
G1 X19.049 Y48.878 E160.44936
G1 X11.122 Y40.951 E160.83260
G1 X11.122 Y41.456 E160.84988
G1 X18.878 Y49.212 E161.22484
G1 X18.878 Y49.718 E161.24213
G1 X11.122 Y41.962 E161.61709
G1 X11.122 Y42.467 E161.63437
G1 X18.878 Y50.224 E162.00933
G1 X18.878 Y50.729 E162.02662
G1 X11.122 Y42.973 E162.40158
G1 X11.122 Y43.478 E162.41886
G1 X18.878 Y51.235 E162.79382
G1 X18.878 Y51.740 E162.81111
G1 X11.122 Y43.984 E163.18607
G1 X11.122 Y44.490 E163.20335
G1 X18.878 Y52.246 E163.57831
G1 X18.878 Y52.751 E163.59560
G1 X11.122 Y44.995 E163.97056
G1 X11.122 Y45.501 E163.98784
G1 X18.878 Y53.257 E164.36280
G1 X18.878 Y53.762 E164.38009
G1 X11.122 Y46.006 E164.75505
G1 X11.122 Y46.512 E164.77233
G1 X18.878 Y54.268 E165.14729
G1 X18.878 Y54.774 E165.16458
G1 X11.122 Y47.017 E165.53954
G1 X11.122 Y47.523 E165.55682
G1 X18.878 Y55.279 E165.93178
G1 X18.878 Y55.785 E165.94907
G1 X11.122 Y48.029 E166.32403
G1 X11.122 Y48.534 E166.34131
G1 X18.878 Y56.290 E166.71627
G1 X18.878 Y56.796 E166.73356
G1 X11.122 Y49.040 E167.10852
G1 X11.122 Y49.545 E167.12580
G1 X18.878 Y57.301 E167.50076
G1 X18.878 Y57.807 E167.51805
G1 X11.122 Y50.051 E167.89301
G1 X11.122 Y50.556 E167.91029
G1 X18.878 Y58.313 E168.28525
G1 X18.878 Y58.818 E168.30254
G1 X11.122 Y51.062 E168.67750
G1 X11.122 Y51.568 E168.69478
G1 X18.878 Y59.324 E169.06974
G1 X18.878 Y59.829 E169.08703
G1 X11.122 Y52.073 E169.46199
G1 X11.122 Y52.579 E169.47927
G1 X18.878 Y60.335 E169.85423
G1 X18.878 Y60.840 E169.87152
G1 X11.122 Y53.084 E170.24648
G1 X11.122 Y53.590 E170.26376
G1 X18.878 Y61.346 E170.63872
G1 X18.878 Y61.852 E170.65601
G1 X11.122 Y54.095 E171.03097
G1 X11.122 Y54.601 E171.04825
G1 X18.878 Y62.357 E171.42321
G1 X18.878 Y62.863 E171.44050
G1 X11.122 Y55.106 E171.81546
G1 X11.122 Y55.612 E171.83274
G1 X18.878 Y63.368 E172.20771
G1 X18.878 Y63.874 E172.22499
G1 X11.122 Y56.118 E172.59995
G1 X11.122 Y56.623 E172.61723
G1 X18.878 Y64.379 E172.99220
G1 X18.878 Y64.885 E173.00948
G1 X11.122 Y57.129 E173.38444
G1 X11.122 Y57.634 E173.40172
G1 X18.878 Y65.391 E173.77669
G1 X18.878 Y65.896 E173.79397
G1 X11.122 Y58.140 E174.16893
G1 X11.122 Y58.645 E174.18621
G1 X18.878 Y66.402 E174.56118
G1 X18.878 Y66.907 E174.57846
G1 X11.122 Y59.151 E174.95342
G1 X11.122 Y59.657 E174.97070
G1 X18.878 Y67.413 E175.34567
G1 X18.878 Y67.918 E175.36295
G1 X11.122 Y60.162 E175.73791
G1 X11.122 Y60.668 E175.75519
G1 X18.878 Y68.424 E176.13016
G1 X18.878 Y68.929 E176.14744
G1 X11.122 Y61.173 E176.52240
G1 X11.122 Y61.679 E176.53968
G1 X18.878 Y69.435 E176.91465
G1 X18.878 Y69.941 E176.93193
G1 X11.122 Y62.184 E177.30689
G1 X11.122 Y62.690 E177.32417
G1 X18.878 Y70.446 E177.69914
G1 X18.878 Y70.952 E177.71642
G1 X11.122 Y63.196 E178.09138
G1 X11.122 Y63.701 E178.10866
G1 X18.878 Y71.457 E178.48363
G1 X18.878 Y71.963 E178.50091
G1 X11.122 Y64.207 E178.87587
G1 X11.122 Y64.712 E178.89315
G1 X18.878 Y72.468 E179.26812
G1 X18.878 Y72.974 E179.28540
G1 X11.122 Y65.218 E179.66036
G1 X11.122 Y65.723 E179.67764
G1 X18.878 Y73.480 E180.05261
G1 X18.878 Y73.985 E180.06989
G1 X11.122 Y66.229 E180.44485
G1 X11.122 Y66.735 E180.46213
G1 X18.878 Y74.491 E180.83710
G1 X18.878 Y74.996 E180.85438
G1 X11.122 Y67.240 E181.22934
G1 X11.122 Y67.746 E181.24662
G1 X18.878 Y75.502 E181.62159
G1 X18.878 Y76.007 E181.63887
G1 X11.122 Y68.251 E182.01383
G1 X11.122 Y68.757 E182.03111
G1 X18.878 Y76.513 E182.40608
G1 X18.878 Y77.019 E182.42336
G1 X11.122 Y69.262 E182.79832
G1 X11.122 Y69.768 E182.81560
G1 X18.878 Y77.524 E183.19057
G1 X18.878 Y78.030 E183.20785
G1 X11.122 Y70.273 E183.58281
G1 X11.122 Y70.779 E183.60009
G1 X18.878 Y78.535 E183.97506
G1 X18.878 Y79.041 E183.99234
G1 X11.122 Y71.285 E184.36730
G1 X11.122 Y71.790 E184.38458
G1 X18.878 Y79.546 E184.75955
G1 X18.878 Y80.052 E184.77683
G1 X11.122 Y72.296 E185.15179
G1 X11.122 Y72.801 E185.16907
G1 X18.878 Y80.557 E185.54404
G1 X18.878 Y81.063 E185.56132
G1 X11.122 Y73.307 E185.93628
G1 X11.122 Y73.812 E185.95356
G1 X18.878 Y81.569 E186.32853
G1 X18.878 Y82.074 E186.34581
G1 X11.122 Y74.318 E186.72077
G1 X11.122 Y74.824 E186.73805
G1 X18.878 Y82.580 E187.11302
G1 X18.878 Y83.085 E187.13030
G1 X11.122 Y75.329 E187.50526
G1 X11.122 Y75.835 E187.52254
G1 X18.878 Y83.591 E187.89751
G1 X18.878 Y84.096 E187.91479
G1 X11.122 Y76.340 E188.28975
G1 X11.122 Y76.846 E188.30703
G1 X18.878 Y84.602 E188.68200
G1 X18.878 Y85.108 E188.69928
G1 X11.122 Y77.351 E189.07424
G1 X11.122 Y77.857 E189.09152
G1 X18.878 Y85.613 E189.46649
G1 X18.878 Y86.119 E189.48377
G1 X11.122 Y78.363 E189.85873
G1 X11.122 Y78.868 E189.87601
G1 X18.878 Y86.624 E190.25098
G1 X18.878 Y87.130 E190.26826
G1 X11.122 Y79.374 E190.64322
G1 X11.122 Y79.879 E190.66050
G1 X18.878 Y87.635 E191.03547
G1 X18.878 Y88.141 E191.05275
G1 X11.122 Y80.385 E191.42771
G1 X11.122 Y80.890 E191.44500
G1 X18.878 Y88.647 E191.81996
G1 X18.878 Y89.152 E191.83724
G1 X11.122 Y81.396 E192.21220
G1 X11.122 Y81.901 E192.22949
G1 X18.878 Y89.658 E192.60445
G1 X18.878 Y90.163 E192.62173
G1 X11.122 Y82.407 E192.99669
G1 X11.122 Y82.913 E193.01398
G1 X18.878 Y90.669 E193.38894
G1 X18.878 Y91.174 E193.40622
G1 X11.122 Y83.418 E193.78118
G1 X11.122 Y83.924 E193.79847
G1 X18.878 Y91.680 E194.17343
G1 X18.878 Y92.186 E194.19071
G1 X11.122 Y84.429 E194.56567
G1 X11.122 Y84.935 E194.58296
G1 X18.878 Y92.691 E194.95792
G1 X18.878 Y93.197 E194.97520
G1 X11.122 Y85.440 E195.35016
G1 X11.122 Y85.946 E195.36745
G1 X18.878 Y93.702 E195.74241
G1 X18.878 Y94.208 E195.75969
G1 X11.122 Y86.452 E196.13465
G1 X11.122 Y86.957 E196.15194
G1 X18.878 Y94.713 E196.52690
G1 X18.878 Y95.219 E196.54418
G1 X11.122 Y87.463 E196.91914
G1 X11.122 Y87.968 E196.93643
G1 X18.878 Y95.724 E197.31139
G1 X18.878 Y96.230 E197.32867
G1 X11.122 Y88.474 E197.70363
G1 X11.122 Y88.979 E197.72092
G1 X18.878 Y96.736 E198.09588
G1 X18.878 Y97.241 E198.11316
G1 X11.122 Y89.485 E198.48812
G1 X11.122 Y89.991 E198.50541
G1 X18.878 Y97.747 E198.88037
G1 X18.878 Y98.252 E198.89765
G1 X11.122 Y90.496 E199.27261
G1 X11.122 Y91.002 E199.28990
G1 X18.878 Y98.758 E199.66486
G1 X18.878 Y99.263 E199.68214
G1 X11.122 Y91.507 E200.05710
G1 X11.122 Y92.013 E200.07439
G1 X18.878 Y99.769 E200.44935
G1 X18.878 Y100.275 E200.46663
G1 X11.122 Y92.518 E200.84159
G1 X11.122 Y93.024 E200.85888
G1 X18.878 Y100.780 E201.23384
G1 X18.878 Y101.286 E201.25112
G1 X11.122 Y93.530 E201.62608
G1 X11.122 Y94.035 E201.64337
G1 X18.878 Y101.791 E202.01833
G1 X18.878 Y102.297 E202.03561
G1 X11.122 Y94.541 E202.41057
G1 X11.122 Y95.046 E202.42786
G1 X18.878 Y102.802 E202.80282
G1 X18.878 Y103.308 E202.82010
G1 X11.122 Y95.552 E203.19506
G1 X11.122 Y96.057 E203.21235
G1 X18.878 Y103.814 E203.58731
G1 X18.878 Y104.319 E203.60459
G1 X11.122 Y96.563 E203.97955
G1 X11.122 Y97.068 E203.99684
G1 X18.878 Y104.825 E204.37180
G1 X18.878 Y105.330 E204.38908
G1 X11.122 Y97.574 E204.76404
G1 X11.122 Y98.080 E204.78133
G1 X18.878 Y105.836 E205.15629
G1 X18.878 Y106.341 E205.17357
G1 X11.122 Y98.585 E205.54853
G1 X11.122 Y99.091 E205.56582
G1 X18.878 Y106.847 E205.94078
G1 X18.878 Y107.352 E205.95806
G1 X11.122 Y99.596 E206.33302
G1 X11.122 Y100.102 E206.35031
G1 X18.878 Y107.858 E206.72527
G1 X18.878 Y108.364 E206.74255
G1 X11.122 Y100.607 E207.11751
G1 X11.122 Y101.113 E207.13480
G1 X18.878 Y108.869 E207.50976
G1 X18.878 Y109.375 E207.52704
G1 X11.122 Y101.619 E207.90200
G1 X11.122 Y102.124 E207.91929
G1 X18.878 Y109.880 E208.29425
G1 X18.878 Y110.386 E208.31153
G1 X11.122 Y102.630 E208.68650
G1 X11.122 Y103.135 E208.70378
G1 X18.878 Y110.891 E209.07874
G1 X18.878 Y111.397 E209.09602
G1 X11.122 Y103.641 E209.47099
G1 X11.122 Y104.146 E209.48827
G1 X18.878 Y111.903 E209.86323
G1 X18.878 Y112.408 E209.88051
G1 X11.122 Y104.652 E210.25548
G1 X11.122 Y105.158 E210.27276
G1 X18.878 Y112.914 E210.64772
G1 X18.878 Y113.419 E210.66500
G1 X11.122 Y105.663 E211.03997
G1 X11.122 Y106.169 E211.05725
G1 X18.878 Y113.925 E211.43221
G1 X18.878 Y114.430 E211.44949
G1 X11.122 Y106.674 E211.82446
G1 X11.122 Y107.180 E211.84174
G1 X18.878 Y114.936 E212.21670
G1 X18.878 Y115.442 E212.23398
G1 X11.122 Y107.685 E212.60895
G1 X11.122 Y108.191 E212.62623
G1 X18.878 Y115.947 E213.00119
G1 X18.878 Y116.453 E213.01847
G1 X11.122 Y108.696 E213.39344
G1 X11.122 Y109.202 E213.41072
G1 X18.878 Y116.958 E213.78568
G1 X18.878 Y117.464 E213.80296
G1 X11.122 Y109.708 E214.17793
G1 X11.122 Y110.213 E214.19521
G1 X18.878 Y117.969 E214.57017
G1 X18.878 Y118.475 E214.58745
G1 X11.122 Y110.719 E214.96242
G1 X11.122 Y111.224 E214.97970
G1 X18.878 Y118.981 E215.35466
G1 X18.878 Y119.486 E215.37194
G1 X11.122 Y111.730 E215.74691
G1 X11.122 Y112.235 E215.76419
G1 X18.878 Y119.992 E216.13915
G1 X18.878 Y120.497 E216.15643
G1 X11.122 Y112.741 E216.53140
G1 X11.122 Y113.247 E216.54868
G1 X18.878 Y121.003 E216.92364
G1 X18.878 Y121.508 E216.94092
G1 X11.122 Y113.752 E217.31589
G1 X11.122 Y114.258 E217.33317
G1 X18.878 Y122.014 E217.70813
G1 X18.878 Y122.519 E217.72541
G1 X11.122 Y114.763 E218.10038
G1 X11.122 Y115.269 E218.11766
G1 X18.878 Y123.025 E218.49262
G1 X18.878 Y123.531 E218.50990
G1 X11.122 Y115.774 E218.88487
G1 X11.122 Y116.280 E218.90215
G1 X18.878 Y124.036 E219.27711
G1 X18.878 Y124.542 E219.29439
G1 X11.122 Y116.786 E219.66936
G1 X11.122 Y117.291 E219.68664
G1 X18.878 Y125.047 E220.06160
G1 X18.878 Y125.553 E220.07888
G1 X11.122 Y117.797 E220.45385
G1 X11.122 Y118.302 E220.47113
G1 X18.878 Y126.058 E220.84609
G1 X18.878 Y126.564 E220.86337
G1 X11.122 Y118.808 E221.23834
G1 X11.122 Y119.313 E221.25562
G1 X18.878 Y127.070 E221.63058
G1 X18.878 Y127.575 E221.64786
G1 X11.122 Y119.819 E222.02283
G1 X11.122 Y120.325 E222.04011
G1 X18.878 Y128.081 E222.41507
G1 X18.878 Y128.586 E222.43235
G1 X11.122 Y120.830 E222.80732
G1 X11.122 Y121.336 E222.82460
G1 X18.878 Y129.092 E223.19956
G1 X18.878 Y129.597 E223.21684
G1 X11.122 Y121.841 E223.59181
G1 X11.122 Y122.347 E223.60909
G1 X18.878 Y130.103 E223.98405
G1 X18.878 Y130.609 E224.00133
G1 X11.122 Y122.852 E224.37630
G1 X11.122 Y123.358 E224.39358
G1 X18.878 Y131.114 E224.76854
G1 X18.878 Y131.620 E224.78582
G1 X11.122 Y123.863 E225.16079
G1 X11.122 Y124.369 E225.17807
G1 X18.878 Y132.125 E225.55303
G1 X18.878 Y132.631 E225.57031
G1 X11.122 Y124.875 E225.94528
G1 X11.122 Y125.380 E225.96256
G1 X18.878 Y133.136 E226.33752
G1 X18.878 Y133.642 E226.35480
G1 X11.122 Y125.886 E226.72977
G1 X11.122 Y126.391 E226.74705
G1 X18.878 Y134.147 E227.12201
G1 X18.878 Y134.653 E227.13929
G1 X11.122 Y126.897 E227.51426
G1 X11.122 Y127.402 E227.53154
G1 X18.878 Y135.159 E227.90650
G1 X18.878 Y135.664 E227.92378
G1 X11.122 Y127.908 E228.29875
G1 X11.122 Y128.414 E228.31603
G1 X18.878 Y136.170 E228.69099
G1 X18.878 Y136.675 E228.70827
G1 X11.122 Y128.919 E229.08324
G1 X11.122 Y129.425 E229.10052
G1 X18.878 Y137.181 E229.47548
G1 X18.878 Y137.686 E229.49276
G1 X11.122 Y129.930 E229.86773
G1 X11.122 Y130.436 E229.88501
G1 X18.878 Y138.192 E230.25997
G1 X18.878 Y138.698 E230.27725
G1 X11.122 Y130.941 E230.65222
G1 X11.122 Y131.447 E230.66950
G1 X18.878 Y139.203 E231.04446
G1 X18.878 Y139.709 E231.06174
G1 X11.122 Y131.953 E231.43671
G1 X11.122 Y132.458 E231.45399
G1 X18.878 Y140.214 E231.82895
G1 X18.878 Y140.720 E231.84623
