; generated by Slic3r 1.2.9 on 2018-09-23 at 17:54:29

; external perimeters extrusion width = 0.40mm
; perimeters extrusion width = 0.67mm
; infill extrusion width = 0.67mm
; solid infill extrusion width = 0.67mm
; top infill extrusion width = 0.67mm

M107
M190 S70 ; set bed temperature
M104 S240 ; set temperature
G28 ; home all axes
G1 Z5 F5000 ; lift nozzle

M109 S240 ; wait for temperature to be reached
G21 ; set units to millimeters
G90 ; use absolute coordinates
M82 ; use absolute distances for extrusion
G92 E0
G1 Z0.200 F7800.000
G1 X45.967 Y35.075 F7800.000
G1 X46.640 Y34.193 E0.03294 F1200.000
G1 X49.063 Y32.319 E0.12392
G1 X51.889 Y31.133 E0.21489
G1 X55.000 Y30.715 E0.30811
G1 X165.000 Y30.715 E3.57415
G1 X168.038 Y31.113 E3.66512
G1 X170.871 Y32.281 E3.75610 F1200.000
G1 X173.307 Y34.140 E3.84707
G1 X175.181 Y36.563 E3.93805
G1 X176.367 Y39.389 E4.02902
G1 X176.785 Y42.500 E4.12224
G1 X176.785 Y177.500 E8.13056
G1 X176.387 Y180.538 E8.22154
G1 X175.219 Y183.371 E8.31251
G1 X173.360 Y185.807 E8.40349
G1 X170.937 Y187.681 E8.49446
G1 X168.111 Y188.867 E8.58544
G1 X165.000 Y189.285 E8.67865
G1 X55.000 Y189.285 E11.94470
G1 X51.962 Y188.887 E12.03567
G1 X49.129 Y187.719 E12.12665
G1 X46.693 Y185.860 E12.21762
G1 X44.819 Y183.437 E12.30860
G1 X43.633 Y180.611 E12.39957
G1 X43.215 Y177.500 E12.49279
G1 X43.215 Y42.500 E16.50111
G1 X43.613 Y39.462 E16.59209
G1 X44.781 Y36.629 E16.68306
G1 X45.930 Y35.123 E16.73931
G1 X46.251 Y35.297 F7800.000
G1 X46.991 Y34.347 E16.77507 F1200.000
G1 X49.404 Y32.536 E16.86465
G1 X52.206 Y31.418 E16.95423
G1 X55.000 Y31.072 E17.03781
G1 X165.000 Y31.072 E20.30385
G1 X167.991 Y31.470 E20.39343
G1 X170.773 Y32.637 E20.48301 F1200.000
G1 X173.153 Y34.491 E20.57259
G1 X174.964 Y36.904 E20.66217
G1 X176.082 Y39.706 E20.75175
G1 X176.428 Y42.500 E20.83533
G1 X176.428 Y177.500 E24.84366
G1 X176.030 Y180.491 E24.93324
G1 X174.863 Y183.273 E25.02282
G1 X173.009 Y185.653 E25.11240
G1 X170.596 Y187.464 E25.20198
G1 X167.794 Y188.582 E25.29156
G1 X165.000 Y188.928 E25.37514
G1 X55.000 Y188.928 E28.64118
G1 X52.009 Y188.530 E28.73076
G1 X49.227 Y187.363 E28.82034
G1 X46.847 Y185.509 E28.90992
G1 X45.036 Y183.096 E28.99950
G1 X43.918 Y180.294 E29.08908
G1 X43.572 Y177.500 E29.17266
G1 X43.572 Y42.500 E33.18099
G1 X43.970 Y39.509 E33.27057
G1 X45.137 Y36.727 E33.36015
G1 X46.214 Y35.344 E33.41219
G1 X46.533 Y35.521 F7800.000
G1 X47.343 Y34.504 E33.45081 F1200.000
G1 X49.743 Y32.756 E33.53897
G1 X52.522 Y31.710 E33.62713
G1 X55.000 Y31.429 E33.70118
G1 X165.000 Y31.429 E36.96722
G1 X167.943 Y31.827 E37.05538
G1 X170.673 Y32.993 E37.14355 F1200.000
G1 X172.996 Y34.843 E37.23171
G1 X174.744 Y37.243 E37.31987
G1 X175.790 Y40.022 E37.40804
G1 X176.071 Y42.500 E37.48208
G1 X176.071 Y177.500 E41.49041
G1 X175.673 Y180.443 E41.57857
G1 X174.507 Y183.173 E41.66673
G1 X172.657 Y185.496 E41.75490
G1 X170.257 Y187.244 E41.84306
G1 X167.478 Y188.290 E41.93122
G1 X165.000 Y188.571 E42.00527
G1 X55.000 Y188.571 E45.27131
G1 X52.057 Y188.173 E45.35947
G1 X49.327 Y187.007 E45.44764
G1 X47.004 Y185.157 E45.53580
G1 X45.256 Y182.757 E45.62396
G1 X44.210 Y179.978 E45.71213
G1 X43.929 Y177.500 E45.78617
G1 X43.929 Y42.500 E49.79450
G1 X44.327 Y39.557 E49.88266
G1 X45.493 Y36.827 E49.97082
G1 X46.495 Y35.568 E50.01859
G1 X46.810 Y35.748 F7800.000
G1 X47.694 Y34.663 E50.06011 F1200.000
G1 X50.082 Y32.981 E50.14684
G1 X52.835 Y32.007 E50.23356
G1 X55.000 Y31.786 E50.29817
G1 X165.000 Y31.786 E53.56422
G1 X167.894 Y32.184 E53.65094
G1 X170.572 Y33.349 E53.73766 F1200.000
G1 X172.837 Y35.194 E53.82439
G1 X174.519 Y37.582 E53.91111
G1 X175.493 Y40.335 E53.99783
G1 X175.714 Y42.500 E54.06245
G1 X175.714 Y177.500 E58.07077
G1 X175.316 Y180.394 E58.15750
G1 X174.151 Y183.072 E58.24422
G1 X172.306 Y185.337 E58.33094
G1 X169.918 Y187.019 E58.41767
G1 X167.165 Y187.993 E58.50439
G1 X165.000 Y188.214 E58.56900
G1 X55.000 Y188.214 E61.83505
G1 X52.106 Y187.816 E61.92177
G1 X49.428 Y186.651 E62.00849
G1 X47.163 Y184.806 E62.09522
G1 X45.481 Y182.418 E62.18194
G1 X44.507 Y179.665 E62.26866
G1 X44.286 Y177.500 E62.33328
G1 X44.286 Y42.500 E66.34160
G1 X44.684 Y39.606 E66.42833
G1 X45.849 Y36.928 E66.51505
G1 X46.773 Y35.794 E66.55847
G1 X47.085 Y35.976 F7800.000
G1 X48.044 Y34.826 E66.60295 F1200.000
G1 X50.419 Y33.211 E66.68821
G1 X53.145 Y32.310 E66.77347
G1 X55.000 Y32.143 E66.82876
G1 X165.000 Y32.143 E70.09480
G1 X167.844 Y32.541 E70.18006
G1 X170.469 Y33.705 E70.26532 F1200.000
G1 X172.674 Y35.544 E70.35058
G1 X174.289 Y37.919 E70.43584
G1 X175.190 Y40.645 E70.52110
G1 X175.357 Y42.500 E70.57640
G1 X175.357 Y177.500 E74.58472
G1 X174.959 Y180.344 E74.66998
G1 X173.795 Y182.969 E74.75524
G1 X171.956 Y185.174 E74.84050
G1 X169.581 Y186.789 E74.92576
G1 X166.855 Y187.690 E75.01102
G1 X165.000 Y187.857 E75.06631
G1 X55.000 Y187.857 E78.33235
G1 X52.156 Y187.459 E78.41761
G1 X49.531 Y186.295 E78.50287
G1 X47.326 Y184.456 E78.58813
G1 X45.711 Y182.081 E78.67339
G1 X44.810 Y179.355 E78.75865
G1 X44.643 Y177.500 E78.81395
G1 X44.643 Y42.500 E82.82227
G1 X45.041 Y39.656 E82.90753
G1 X46.205 Y37.031 E82.99279
G1 X47.046 Y36.022 E83.03179
G1 E78.53179 F2700.00000
G92 E0
G1 X51.545 Y110.148 F7800.000
G1 E4.50000 F2700.00000
G1 X51.545 Y109.852 E4.50878 F1200.000
G1 X50.894 Y109.201 E4.53613
G1 X50.894 Y40.799 E6.56707
G1 X53.299 Y38.394 E6.66807
G1 X166.701 Y38.394 E10.03512
G1 X169.106 Y40.799 E10.13612
G1 X169.106 Y109.201 E12.16706
G1 X168.455 Y109.852 E12.19441
G1 X168.455 Y110.148 E12.20319
G1 X169.106 Y110.799 E12.23053
G1 X169.106 Y179.201 E14.26147
G1 X166.701 Y181.606 E14.36248
G1 X53.299 Y181.606 E17.72952
G1 X50.894 Y179.201 E17.83053
G1 X50.894 Y110.799 E19.86147
G1 X51.502 Y110.190 E19.88703
G1 X52.050 Y110.148 F7800.000
G1 X52.050 Y109.852 E19.89581 F1200.000
G1 X51.251 Y109.053 E19.92937
G1 X51.251 Y40.947 E21.95152
G1 X53.447 Y38.751 E22.04375
G1 X166.553 Y38.751 E25.40201
G1 X168.749 Y40.947 E25.49423
G1 X168.749 Y109.053 E27.51639
G1 X167.950 Y109.852 E27.54994
G1 X167.950 Y110.148 E27.55873
G1 X168.749 Y110.947 E27.59228
G1 X168.749 Y179.053 E29.61444
G1 X166.553 Y181.249 E29.70666
G1 X53.447 Y181.249 E33.06492
G1 X51.251 Y179.053 E33.15715
G1 X51.251 Y110.947 E35.17930
G1 X52.007 Y110.190 E35.21107
G1 X52.555 Y110.148 F7800.000
G1 X52.555 Y109.852 E35.21986 F1200.000
G1 X51.608 Y108.905 E35.25962
G1 X51.608 Y41.095 E37.27299
G1 X53.595 Y39.108 E37.35643
G1 X166.405 Y39.108 E40.70591
G1 X168.392 Y41.095 E40.78935
G1 X168.392 Y108.905 E42.80273
G1 X167.445 Y109.852 E42.84249
G1 X167.445 Y110.148 E42.85127
G1 X168.392 Y111.095 E42.89104
G1 X168.392 Y178.905 E44.90441
G1 X166.405 Y180.892 E44.98785
G1 X53.595 Y180.892 E48.33733
G1 X51.608 Y178.905 E48.42077
G1 X51.608 Y111.095 E50.43415
G1 X52.512 Y110.190 E50.47213
G1 X53.060 Y110.148 F7800.000
G1 X53.060 Y109.852 E50.48091 F1200.000
G1 X51.965 Y108.757 E50.52688
G1 X51.965 Y41.243 E52.53148
G1 X53.743 Y39.465 E52.60613
G1 X166.257 Y39.465 E55.94683
G1 X168.035 Y41.243 E56.02149
G1 X168.035 Y108.757 E58.02608
G1 X166.940 Y109.852 E58.07205
G1 X166.940 Y110.148 E58.08083
G1 X168.035 Y111.243 E58.12681
G1 X168.035 Y178.757 E60.13140
G1 X166.257 Y180.535 E60.20605
G1 X53.743 Y180.535 E63.54675
G1 X51.965 Y178.757 E63.62141
G1 X51.965 Y111.243 E65.62600
G1 X53.017 Y110.190 E65.67019
G1 X53.565 Y110.148 F7800.000
G1 X53.565 Y109.852 E65.67898 F1200.000
G1 X52.322 Y108.609 E65.73116
G1 X52.322 Y41.391 E67.72697
G1 X53.891 Y39.822 E67.79284
G1 X166.109 Y39.822 E71.12476
G1 X167.678 Y41.391 E71.19063
G1 X167.678 Y108.609 E73.18644
G1 X166.435 Y109.852 E73.23862
G1 X166.435 Y110.148 E73.24740
G1 X167.678 Y111.391 E73.29959
G1 X167.678 Y178.609 E75.29540
G1 X166.109 Y180.178 E75.36127
G1 X53.891 Y180.178 E78.69319
G1 X52.322 Y178.609 E78.75906
G1 X52.322 Y111.391 E80.75487
G1 X53.522 Y110.190 E80.80527
G1 X54.070 Y110.148 F7800.000
G1 X54.070 Y109.852 E80.81405 F1200.000
G1 X52.679 Y108.461 E80.87245
G1 X52.679 Y41.539 E82.85947
G1 X54.039 Y40.179 E82.91656
G1 X165.961 Y40.179 E86.23969
G1 X167.321 Y41.539 E86.29678
G1 X167.321 Y108.461 E88.28381
G1 X165.930 Y109.852 E88.34220
G1 X165.930 Y110.148 E88.35099
G1 X167.321 Y111.539 E88.40938
G1 X167.321 Y178.461 E90.39641
G1 X165.961 Y179.821 E90.45350
G1 X54.039 Y179.821 E93.77663
G1 X52.679 Y178.461 E93.83372
G1 X52.679 Y111.539 E95.82074
G1 X54.027 Y110.190 E95.87736
G1 X54.187 Y109.464 F7800.000
G1 X53.036 Y108.313 E95.92566 F1200.000
G1 X53.036 Y41.687 E97.90391
G1 X54.187 Y40.536 E97.95221
G1 X165.813 Y40.536 E101.26656
G1 X166.964 Y41.687 E101.31487
G1 X166.964 Y108.313 E103.29311 F1200.000
G1 X165.813 Y109.464 E103.34142
G1 X54.247 Y109.464 E106.65399
G1 X54.334 Y109.107 F7800.000
G1 X53.393 Y108.166 E106.69351 F1200.000
G1 X53.393 Y41.834 E108.66297
G1 X54.334 Y40.893 E108.70249
G1 X165.666 Y40.893 E112.00806
G1 X166.607 Y41.834 E112.04758 F1200.000
G1 X166.607 Y108.166 E114.01704
G1 X165.666 Y109.107 E114.05656
G1 X54.394 Y109.107 E117.36035
G1 X54.482 Y108.750 F7800.000
G1 X53.750 Y108.018 E117.39109 F1200.000
G1 X53.750 Y41.982 E119.35176
G1 X54.482 Y41.250 E119.38250
G1 X165.518 Y41.250 E122.67929
G1 X166.250 Y41.982 E122.71003
G1 X166.250 Y108.018 E124.67070 F1200.000
G1 X165.518 Y108.750 E124.70144
G1 X54.542 Y108.750 E127.99645
G1 X54.630 Y108.393 F7800.000
G1 X54.107 Y107.870 E128.01840 F1200.000
G1 X54.107 Y42.130 E129.97030
G1 X54.630 Y41.607 E129.99225
G1 X165.370 Y41.607 E133.28025
G1 X165.893 Y42.130 E133.30221 F1200.000
G1 X165.893 Y107.870 E135.25410
G1 X165.370 Y108.393 E135.27606
G1 X54.690 Y108.393 E138.56228
G1 X54.778 Y108.036 F7800.000
G1 X54.464 Y107.722 E138.57545 F1200.000
G1 X54.464 Y42.278 E140.51856
G1 X54.778 Y41.964 E140.53174
G1 X165.222 Y41.964 E143.81095
G1 X165.536 Y42.278 E143.82413
G1 X165.536 Y107.722 E145.76724 F1200.000
G1 X165.222 Y108.036 E145.78041
G1 X54.838 Y108.036 E149.05785
G1 X54.821 Y107.574 F7800.000
G1 X54.821 Y42.426 E150.99217 F1200.000
G1 X54.926 Y42.321 E150.99657
G1 X165.074 Y42.321 E154.26700
G1 X165.179 Y42.426 E154.27139
G1 X165.179 Y107.574 E156.20572
G1 X165.074 Y107.679 E156.21011
G1 X54.926 Y107.679 E159.48054
G1 X54.864 Y107.616 E159.48315
G1 X54.821 Y110.536 F7800.000
G1 X165.813 Y110.536 E162.77865 F1200.000
G1 X166.964 Y111.687 E162.82696
G1 X166.964 Y178.313 E164.80520 F1200.000
G1 X165.813 Y179.464 E164.85350
G1 X54.187 Y179.464 E168.16785
G1 X53.036 Y178.313 E168.21616
G1 X53.036 Y111.687 E170.19440
G1 X54.187 Y110.536 E170.24271
G1 X54.761 Y110.536 E170.25978
G1 X54.821 Y110.893 F7800.000
G1 X165.666 Y110.893 E173.55089 F1200.000
G1 X166.607 Y111.834 E173.59041 F1200.000
G1 X166.607 Y178.166 E175.55987
G1 X165.666 Y179.107 E175.59939
G1 X54.334 Y179.107 E178.90496
G1 X53.393 Y178.166 E178.94448
G1 X53.393 Y111.834 E180.91394
G1 X54.334 Y110.893 E180.95346
G1 X54.761 Y110.893 E180.96614
G1 X54.821 Y111.250 F7800.000
G1 X165.518 Y111.250 E184.25286 F1200.000
G1 X166.250 Y111.982 E184.28360
G1 X166.250 Y178.018 E186.24427 F1200.000
G1 X165.518 Y178.750 E186.27501
G1 X54.482 Y178.750 E189.57180
G1 X53.750 Y178.018 E189.60254
G1 X53.750 Y111.982 E191.56321
G1 X54.482 Y111.250 E191.59395
G1 X54.761 Y111.250 E191.60224
G1 X54.821 Y111.607 F7800.000
G1 X165.370 Y111.607 E194.88456 F1200.000
G1 X165.893 Y112.130 E194.90652 F1200.000
G1 X165.893 Y177.870 E196.85841
G1 X165.370 Y178.393 E196.88037
G1 X54.630 Y178.393 E200.16837
G1 X54.107 Y177.870 E200.19033
G1 X54.107 Y112.130 E202.14222
G1 X54.630 Y111.607 E202.16418
G1 X54.761 Y111.607 E202.16807
G1 X54.821 Y111.964 F7800.000
G1 X165.222 Y111.964 E205.44601 F1200.000
G1 X165.536 Y112.278 E205.45918
G1 X165.536 Y177.722 E207.40229 F1200.000
G1 X165.222 Y178.036 E207.41546
G1 X54.778 Y178.036 E210.69468
G1 X54.464 Y177.722 E210.70786
G1 X54.464 Y112.278 E212.65096
G1 X54.766 Y111.976 E212.66364
G1 X54.926 Y112.321 F7800.000
G1 X165.074 Y112.321 E215.93408 F1200.000
G1 X165.179 Y112.426 E215.93847
G1 X165.179 Y177.574 E217.87279
G1 X165.074 Y177.679 E217.87719
G1 X54.926 Y177.679 E221.14762
G1 X54.821 Y177.574 E221.15201
G1 X54.821 Y112.426 E223.08634
G1 X54.884 Y112.364 E223.08895
G1 E218.58895 F2700.00000
G92 E0
G1 X55.200 Y177.300 F7800.000
G1 E4.50000 F2700.00000
G1 X55.200 Y112.700 E6.41806 F1200.000
G1 X164.800 Y112.700 E9.67222
G1 X164.800 Y177.300 E11.59028
G1 X55.260 Y177.300 E14.84267
G1 X55.400 Y176.954 F7800.000
G1 X55.557 Y176.943 F7800.000
G1 X55.557 Y113.057 E16.73952 F1200.000
G1 X164.443 Y113.057 E19.97248
G1 X164.443 Y176.943 E21.86933
G1 X55.617 Y176.943 E25.10051
G1 X55.914 Y176.586 F7800.000
G1 X55.914 Y113.414 E26.97616 F1200.000
G1 X164.086 Y113.414 E30.18792
G1 X164.086 Y176.586 E32.06357
G1 X55.974 Y176.586 E35.27355
G1 X56.819 Y176.378 F7800.000
G1 X56.122 Y175.681 E35.30291 F1200.000
G1 X56.122 Y175.174 E35.31799
G1 X57.326 Y176.378 E35.36867
G1 X57.832 Y176.378 E35.38375
G1 X56.122 Y174.668 E35.45575
G1 X56.122 Y174.162 E35.47082
G1 X58.338 Y176.378 E35.56415
G1 X58.845 Y176.378 E35.57922
G1 X56.122 Y173.655 E35.69386
G1 X56.122 Y173.149 E35.70893
G1 X59.351 Y176.378 E35.84489
G1 X59.857 Y176.378 E35.85997
G1 X56.122 Y172.643 E36.01724
G1 X56.122 Y172.136 E36.03232
G1 X60.364 Y176.378 E36.21091
G1 X60.870 Y176.378 E36.22598
G1 X56.122 Y171.630 E36.42589
G1 X56.122 Y171.124 E36.44097
G1 X61.376 Y176.378 E36.66220
G1 X61.883 Y176.378 E36.67727
G1 X56.122 Y170.617 E36.91982
G1 X56.122 Y170.111 E36.93489
G1 X62.389 Y176.378 E37.19876
G1 X62.896 Y176.378 E37.21383
G1 X56.122 Y169.604 E37.49902
G1 X56.122 Y169.098 E37.51409
G1 X63.402 Y176.378 E37.82059
G1 X63.908 Y176.378 E37.83567
G1 X56.122 Y168.592 E38.16349
G1 X56.122 Y168.085 E38.17856
G1 X64.415 Y176.378 E38.52770
G1 X64.921 Y176.378 E38.54277
G1 X56.122 Y167.579 E38.91323
G1 X56.122 Y167.073 E38.92830
G1 X65.427 Y176.378 E39.32007
G1 X65.934 Y176.378 E39.33515
G1 X56.122 Y166.566 E39.74824
G1 X56.122 Y166.060 E39.76331
G1 X66.440 Y176.378 E40.19772
G1 X66.946 Y176.378 E40.21280
G1 X56.122 Y165.554 E40.66852
G1 X56.122 Y165.047 E40.68360
G1 X67.453 Y176.378 E41.16064
G1 X67.959 Y176.378 E41.17572
G1 X56.122 Y164.541 E41.67408
G1 X56.122 Y164.035 E41.68915
G1 X68.465 Y176.378 E42.20883
G1 X68.972 Y176.378 E42.22391
G1 X56.122 Y163.528 E42.76491
G1 X56.122 Y163.022 E42.77998
G1 X69.478 Y176.378 E43.34230
G1 X69.984 Y176.378 E43.35737
G1 X56.122 Y162.516 E43.94101
G1 X56.122 Y162.009 E43.95608
G1 X70.491 Y176.378 E44.56103
G1 X70.997 Y176.378 E44.57611
G1 X56.122 Y161.503 E45.20238
G1 X56.122 Y160.997 E45.21745
G1 X71.503 Y176.378 E45.86504
G1 X72.010 Y176.378 E45.88011
G1 X56.122 Y160.490 E46.54902
G1 X56.122 Y159.984 E46.56410
G1 X72.516 Y176.378 E47.25432
G1 X73.022 Y176.378 E47.26939
G1 X56.122 Y159.478 E47.98094
G1 X56.122 Y158.971 E47.99601
G1 X73.529 Y176.378 E48.72887
G1 X74.035 Y176.378 E48.74394
G1 X56.122 Y158.465 E49.49812
G1 X56.122 Y157.959 E49.51320
G1 X74.541 Y176.378 E50.28869
G1 X75.048 Y176.378 E50.30377
G1 X56.122 Y157.452 E51.10058
G1 X56.122 Y156.946 E51.11566
G1 X75.554 Y176.378 E51.93379
G1 X76.060 Y176.378 E51.94886
G1 X56.122 Y156.440 E52.78831
G1 X56.122 Y155.933 E52.80339
G1 X76.567 Y176.378 E53.66416
G1 X77.073 Y176.378 E53.67923
G1 X56.122 Y155.427 E54.56132
G1 X56.122 Y154.921 E54.57639
G1 X77.579 Y176.378 E55.47979
G1 X78.086 Y176.378 E55.49487
G1 X56.122 Y154.414 E56.41959
G1 X56.122 Y153.908 E56.43466
G1 X78.592 Y176.378 E57.38070
G1 X79.098 Y176.378 E57.39578
G1 X56.122 Y153.402 E58.36314
G1 X56.122 Y152.895 E58.37821
G1 X79.605 Y176.378 E59.36689
G1 X80.111 Y176.378 E59.38196
G1 X56.122 Y152.389 E60.39195
G1 X56.122 Y151.883 E60.40703
G1 X80.617 Y176.378 E61.43834
G1 X81.124 Y176.378 E61.45341
G1 X56.122 Y151.376 E62.50604
G1 X56.122 Y150.870 E62.52112
G1 X81.630 Y176.378 E63.59507
G1 X82.136 Y176.378 E63.61014
G1 X56.122 Y150.364 E64.70541
G1 X56.122 Y149.857 E64.72048
G1 X82.643 Y176.378 E65.83706
G1 X83.149 Y176.378 E65.85214
G1 X56.122 Y149.351 E66.99004
G1 X56.122 Y148.845 E67.00511
G1 X83.655 Y176.378 E68.16433
G1 X84.162 Y176.378 E68.17941
G1 X56.122 Y148.338 E69.35995
G1 X56.122 Y147.832 E69.37502
G1 X84.668 Y176.378 E70.57687
G1 X85.174 Y176.378 E70.59195
