; generated by Slic3r 1.2.9 on 2018-09-17 at 00:29:41

; external perimeters extrusion width = 0.40mm
; perimeters extrusion width = 0.67mm
; infill extrusion width = 0.67mm
; solid infill extrusion width = 0.67mm
; top infill extrusion width = 0.67mm

M107
M190 S100 ; set bed temperature
M104 S230 ; set temperature
G28 ; home all axes
G1 Z5 F5000 ; lift nozzle

M109 S230 ; wait for temperature to be reached
G21 ; set units to millimeters
G90 ; use absolute coordinates
M82 ; use absolute distances for extrusion
G92 E0
G1 Z0.200 F7800.000
G1 E-4.50000 F2700.00000
G92 E0
G1 X85.863 Y85.863 F7800.000
G1 E4.50000 F2700.00000
G1 X86.826 Y84.923 E4.53996 F1200.000
G1 X88.025 Y83.866 E4.58741
G1 X88.447 Y83.517 E4.60367
G1 X89.709 Y82.538 E4.65111
G1 X90.152 Y82.216 E4.66736
G1 X91.474 Y81.318 E4.71480
G1 X91.936 Y81.025 E4.73106
G1 X93.311 Y80.211 E4.77850
G1 X93.791 Y79.948 E4.79475
G1 X95.215 Y79.222 E4.84219
G1 X95.710 Y78.989 E4.85844
G1 X97.177 Y78.354 E4.90590
G1 X97.685 Y78.153 E4.92214
G1 X99.189 Y77.612 E4.96958
G1 X100.735 Y77.145 E5.01754
G1 X101.774 Y76.861 E5.04952
G1 X103.333 Y76.512 E5.09696
G1 X103.871 Y76.410 E5.11321
G1 X105.449 Y76.160 E5.16065
G1 X105.992 Y76.091 E5.17691
G1 X107.583 Y75.941 E5.22435
G1 X108.129 Y75.906 E5.24061
G1 X109.727 Y75.856 E5.28805
G1 X110.274 Y75.856 E5.30430
G1 X111.871 Y75.906 E5.35174 F1200.000
G1 X113.481 Y76.041 E5.39971
G1 X114.551 Y76.160 E5.43169
G1 X116.129 Y76.410 E5.47913
G1 X117.709 Y76.745 E5.52709
G1 X118.756 Y76.997 E5.55906
G1 X120.291 Y77.443 E5.60650
G1 X120.811 Y77.612 E5.62276
G1 X122.315 Y78.153 E5.67020
G1 X122.824 Y78.355 E5.68645
G1 X124.290 Y78.989 E5.73389
G1 X124.785 Y79.222 E5.75014
G1 X126.209 Y79.948 E5.79759
G1 X127.608 Y80.755 E5.84555
G1 X128.526 Y81.318 E5.87753
G1 X129.848 Y82.216 E5.92497
G1 X130.291 Y82.538 E5.94122
G1 X131.553 Y83.517 E5.98866
G1 X131.975 Y83.866 E6.00492
G1 X133.174 Y84.923 E6.05236
G1 X133.573 Y85.298 E6.06861
G1 X134.702 Y86.427 E6.11605
G1 X135.784 Y87.628 E6.16402
G1 X136.483 Y88.447 E6.19599
G1 X137.462 Y89.709 E6.24344
G1 X138.384 Y91.036 E6.29140
G1 X138.975 Y91.936 E6.32337
G1 X139.789 Y93.311 E6.37082
G1 X140.052 Y93.791 E6.38707
G1 X140.778 Y95.215 E6.43451
G1 X141.011 Y95.710 E6.45076
G1 X141.646 Y97.177 E6.49821
G1 X141.847 Y97.685 E6.51446
G1 X142.388 Y99.189 E6.56190
G1 X142.557 Y99.709 E6.57815
G1 X143.003 Y101.244 E6.62559
G1 X143.139 Y101.774 E6.64185
G1 X143.488 Y103.333 E6.68929
G1 X143.590 Y103.871 E6.70553
G1 X143.840 Y105.449 E6.75298
G1 X143.909 Y105.992 E6.76924
G1 X144.059 Y107.583 E6.81668
G1 X144.094 Y108.129 E6.83293
G1 X144.144 Y109.727 E6.88038
G1 X144.144 Y110.274 E6.89662
G1 X144.094 Y111.871 E6.94406
G1 X144.059 Y112.417 E6.96032
G1 X143.909 Y114.008 E7.00777
G1 X143.840 Y114.551 E7.02402
G1 X143.590 Y116.129 E7.07146
G1 X143.255 Y117.709 E7.11942
G1 X143.003 Y118.756 E7.15140
G1 X142.557 Y120.291 E7.19884
G1 X142.026 Y121.816 E7.24680
G1 X141.645 Y122.824 E7.27877
G1 X141.011 Y124.290 E7.32621
G1 X140.293 Y125.737 E7.37418
G1 X139.789 Y126.689 E7.40615
G1 X138.975 Y128.064 E7.45360
G1 X138.682 Y128.526 E7.46985
G1 X137.784 Y129.848 E7.51729
G1 X137.462 Y130.291 E7.53355
G1 X136.483 Y131.553 E7.58099
G1 X136.134 Y131.975 E7.59725
G1 X135.077 Y133.174 E7.64469
G1 X134.702 Y133.573 E7.66094
G1 X133.573 Y134.702 E7.70838
G1 X133.174 Y135.077 E7.72462
G1 X131.975 Y136.134 E7.77207
G1 X131.553 Y136.483 E7.78833
G1 X130.291 Y137.462 E7.83577
G1 X128.964 Y138.384 E7.88374
G1 X128.064 Y138.975 E7.91571
G1 X126.689 Y139.789 E7.96315
G1 X126.209 Y140.052 E7.97940
G1 X124.785 Y140.778 E8.02684
G1 X124.290 Y141.011 E8.04310
G1 X122.823 Y141.646 E8.09055
G1 X122.315 Y141.847 E8.10679
G1 X120.811 Y142.388 E8.15423
G1 X120.291 Y142.557 E8.17048
G1 X118.756 Y143.003 E8.21793
G1 X118.226 Y143.139 E8.23418
G1 X116.667 Y143.488 E8.28162
G1 X116.129 Y143.590 E8.29787
G1 X114.551 Y143.840 E8.34531
G1 X114.008 Y143.909 E8.36157
G1 X112.417 Y144.059 E8.40901
G1 X111.871 Y144.094 E8.42527
G1 X110.273 Y144.144 E8.47271
G1 X109.726 Y144.144 E8.48896
G1 X108.129 Y144.094 E8.53640
G1 X107.583 Y144.059 E8.55265
G1 X105.992 Y143.909 E8.60010
G1 X105.449 Y143.840 E8.61636
G1 X103.871 Y143.590 E8.66380
G1 X103.333 Y143.488 E8.68005
G1 X101.774 Y143.139 E8.72749
G1 X101.244 Y143.003 E8.74374
G1 X99.709 Y142.557 E8.79118
G1 X98.184 Y142.026 E8.83915
G1 X97.176 Y141.645 E8.87112
G1 X95.710 Y141.011 E8.91856
G1 X94.263 Y140.293 E8.96653
G1 X93.311 Y139.789 E8.99849
G1 X91.936 Y138.975 E9.04595
G1 X91.474 Y138.682 E9.06220
G1 X90.152 Y137.784 E9.10964
G1 X89.709 Y137.462 E9.12589
G1 X88.447 Y136.483 E9.17333
G1 X88.025 Y136.134 E9.18959
G1 X86.826 Y135.077 E9.23703
G1 X85.672 Y133.947 E9.28499
G1 X84.923 Y133.174 E9.31696
G1 X83.866 Y131.975 E9.36440
G1 X83.517 Y131.553 E9.38066
G1 X82.538 Y130.291 E9.42811
G1 X82.216 Y129.848 E9.44436
G1 X81.318 Y128.526 E9.49180
G1 X81.025 Y128.064 E9.50805
G1 X80.211 Y126.689 E9.55550
G1 X79.948 Y126.209 E9.57175
G1 X79.222 Y124.785 E9.61919
G1 X78.565 Y123.310 E9.66715
G1 X78.153 Y122.315 E9.69913
G1 X77.612 Y120.811 E9.74657
G1 X77.145 Y119.265 E9.79453
G1 X76.861 Y118.226 E9.82651
G1 X76.512 Y116.667 E9.87395
G1 X76.410 Y116.129 E9.89020
G1 X76.160 Y114.551 E9.93764
G1 X76.091 Y114.008 E9.95390
G1 X75.941 Y112.417 E10.00134
G1 X75.906 Y111.871 E10.01759
G1 X75.856 Y110.273 E10.06504
G1 X75.856 Y109.726 E10.08128
G1 X75.906 Y108.129 E10.12872
G1 X75.941 Y107.583 E10.14498
G1 X76.091 Y105.992 E10.19243
G1 X76.160 Y105.449 E10.20868
G1 X76.410 Y103.871 E10.25612
G1 X76.512 Y103.333 E10.27237
G1 X76.861 Y101.774 E10.31982
G1 X76.997 Y101.244 E10.33607
G1 X77.443 Y99.709 E10.38351
G1 X77.612 Y99.189 E10.39976
G1 X78.153 Y97.685 E10.44721
G1 X78.355 Y97.176 E10.46345
G1 X78.989 Y95.710 E10.51089
G1 X79.222 Y95.215 E10.52715
G1 X79.948 Y93.791 E10.57460
G1 X80.755 Y92.392 E10.62256
G1 X81.318 Y91.474 E10.65453
G1 X82.216 Y90.152 E10.70197
G1 X82.538 Y89.709 E10.71822
G1 X83.517 Y88.447 E10.76567
G1 X83.866 Y88.025 E10.78193
G1 X84.923 Y86.826 E10.82937
G1 X85.820 Y85.905 E10.86755
G1 X86.115 Y86.115 F7800.000
G1 X87.062 Y85.191 E10.90685 F1200.000
G1 X88.666 Y83.799 E10.96988
G1 X89.928 Y82.820 E11.01732
G1 X91.674 Y81.613 E11.08034
G1 X92.118 Y81.332 E11.09593
G1 X93.953 Y80.266 E11.15895
G1 X95.852 Y79.317 E11.22197
G1 X97.319 Y78.682 E11.26943
G1 X99.310 Y77.948 E11.33244
G1 X100.835 Y77.488 E11.37974
G1 X101.852 Y77.209 E11.41105
G1 X103.927 Y76.762 E11.47406
G1 X105.505 Y76.512 E11.52151
G1 X107.617 Y76.296 E11.58454
G1 X108.141 Y76.263 E11.60012
G1 X110.262 Y76.213 E11.66314
G1 X111.859 Y76.263 E11.71058 F1200.000
G1 X113.447 Y76.397 E11.75788
G1 X114.495 Y76.512 E11.78920
G1 X116.073 Y76.762 E11.83664
G1 X117.631 Y77.094 E11.88394
G1 X118.657 Y77.340 E11.91524
G1 X120.690 Y77.948 E11.97827
G1 X122.194 Y78.489 E12.02571
G1 X124.148 Y79.317 E12.08873
G1 X124.623 Y79.540 E12.10432
G1 X126.047 Y80.266 E12.15176
G1 X127.426 Y81.062 E12.19905
G1 X128.326 Y81.613 E12.23037
G1 X129.647 Y82.511 E12.27781
G1 X131.334 Y83.799 E12.34083
G1 X131.739 Y84.134 E12.35642
G1 X133.320 Y85.550 E12.41944
G1 X134.450 Y86.680 E12.46688
G1 X135.516 Y87.864 E12.51418
G1 X136.201 Y88.666 E12.54549
G1 X137.180 Y89.928 E12.59293
G1 X138.089 Y91.236 E12.64023
G1 X138.668 Y92.118 E12.67154
G1 X139.481 Y93.493 E12.71898
G1 X140.460 Y95.377 E12.78200
G1 X140.683 Y95.852 E12.79759
G1 X141.318 Y97.319 E12.84504
G1 X142.052 Y99.310 E12.90805
G1 X142.660 Y101.343 E12.97108
G1 X142.791 Y101.852 E12.98667
G1 X143.238 Y103.927 E13.04968
G1 X143.553 Y106.026 E13.11271
G1 X143.737 Y108.141 E13.17574
G1 X143.787 Y109.738 E13.22318
G1 X143.737 Y111.859 E13.28620
G1 X143.704 Y112.383 E13.30178
G1 X143.553 Y113.974 E13.34923
G1 X143.238 Y116.073 E13.41226
G1 X142.906 Y117.631 E13.45955
G1 X142.660 Y118.657 E13.49086
G1 X142.214 Y120.191 E13.53830
G1 X141.690 Y121.695 E13.58560
G1 X141.318 Y122.682 E13.61690
G1 X140.683 Y124.148 E13.66435
G1 X139.975 Y125.575 E13.71165
G1 X139.481 Y126.507 E13.74295
G1 X138.387 Y128.326 E13.80598
G1 X137.180 Y130.072 E13.86900
G1 X136.201 Y131.334 E13.91644
G1 X135.866 Y131.739 E13.93204
G1 X134.450 Y133.320 E13.99505
G1 X132.938 Y134.809 E14.05807
G1 X131.739 Y135.866 E14.10552
G1 X130.072 Y137.180 E14.16855
G1 X128.763 Y138.089 E14.21585
G1 X127.882 Y138.668 E14.24715
G1 X126.507 Y139.481 E14.29459
G1 X124.623 Y140.460 E14.35761
G1 X122.682 Y141.318 E14.42065
G1 X120.690 Y142.052 E14.48366
G1 X120.191 Y142.214 E14.49924
G1 X118.657 Y142.660 E14.54669
G1 X116.589 Y143.139 E14.60971
G1 X114.495 Y143.488 E14.67273
G1 X113.974 Y143.553 E14.68832
G1 X111.859 Y143.737 E14.75135
G1 X110.262 Y143.787 E14.79879
G1 X108.141 Y143.737 E14.86181
G1 X106.026 Y143.553 E14.92484
G1 X105.505 Y143.488 E14.94043
G1 X103.411 Y143.139 E15.00344
G1 X101.852 Y142.791 E15.05089
G1 X99.809 Y142.214 E15.11391
G1 X98.305 Y141.690 E15.16121
G1 X97.318 Y141.318 E15.19251
G1 X95.852 Y140.683 E15.23995
G1 X94.425 Y139.975 E15.28726
G1 X93.493 Y139.481 E15.31856
G1 X92.118 Y138.668 E15.36601
G1 X90.353 Y137.489 E15.42903
G1 X89.928 Y137.180 E15.44461
G1 X88.666 Y136.201 E15.49205
G1 X87.062 Y134.809 E15.55509
G1 X86.680 Y134.450 E15.57067
G1 X85.191 Y132.938 E15.63368
G1 X83.799 Y131.334 E15.69671
G1 X82.820 Y130.072 E15.74416
G1 X81.613 Y128.326 E15.80718
G1 X81.332 Y127.882 E15.82277
G1 X80.266 Y126.047 E15.88579
G1 X79.540 Y124.623 E15.93323
G1 X78.893 Y123.168 E15.98053
G1 X78.489 Y122.194 E16.01184
G1 X77.948 Y120.690 E16.05928
G1 X77.488 Y119.165 E16.10658
G1 X77.209 Y118.148 E16.13789
G1 X76.762 Y116.073 E16.20090
G1 X76.512 Y114.495 E16.24835
G1 X76.296 Y112.383 E16.31137
G1 X76.263 Y111.859 E16.32696
G1 X76.213 Y109.738 E16.38998
G1 X76.296 Y107.617 E16.45300
G1 X76.447 Y106.026 E16.50045
G1 X76.512 Y105.505 E16.51604
G1 X76.861 Y103.411 E16.57906
G1 X77.340 Y101.343 E16.64208
G1 X77.948 Y99.310 E16.70510
G1 X78.489 Y97.806 E16.75255
G1 X79.317 Y95.852 E16.81557
G1 X79.540 Y95.377 E16.83115
G1 X80.266 Y93.953 E16.87860
G1 X81.062 Y92.574 E16.92589
G1 X81.613 Y91.674 E16.95721
G1 X82.511 Y90.353 E17.00465
G1 X83.799 Y88.666 E17.06767
G1 X84.134 Y88.261 E17.08326
G1 X85.191 Y87.062 E17.13070
G1 X86.073 Y86.157 E17.16822
G1 E12.66822 F2700.00000
G92 E0
G1 X127.049 Y127.049 F7800.000
G1 E4.50000 F2700.00000
G1 X126.514 Y127.585 E4.52250 F1200.000
G1 X125.377 Y128.587 E4.56750
G1 X124.179 Y129.516 E4.61249
G1 X122.926 Y130.368 E4.65749
G1 X121.621 Y131.139 E4.70248
G1 X120.271 Y131.827 E4.74748
G1 X118.880 Y132.429 E4.79247
G1 X117.455 Y132.943 E4.83747
G1 X115.999 Y133.365 E4.88247
G1 X114.520 Y133.696 E4.92746
G1 X113.023 Y133.933 E4.97246
G1 X111.515 Y134.076 E5.01746
G1 X110.000 Y134.123 E5.06245
G1 X108.485 Y134.076 E5.10745
G1 X106.977 Y133.933 E5.15244
G1 X105.480 Y133.696 E5.19744
G1 X104.001 Y133.365 E5.24244
G1 X102.545 Y132.943 E5.28743
G1 X101.120 Y132.429 E5.33243
G1 X99.729 Y131.827 E5.37743
G1 X98.379 Y131.139 E5.42242
G1 X97.074 Y130.368 E5.46742
G1 X95.821 Y129.516 E5.51241
G1 X94.623 Y128.587 E5.55741
G1 X93.486 Y127.585 E5.60241
G1 X92.415 Y126.514 E5.64740
G1 X91.413 Y125.377 E5.69240
G1 X90.484 Y124.179 E5.73739
G1 X89.632 Y122.926 E5.78239
G1 X88.861 Y121.621 E5.82739
G1 X88.173 Y120.271 E5.87238
G1 X87.571 Y118.880 E5.91738
G1 X87.057 Y117.455 E5.96238
G1 X86.635 Y115.999 E6.00737
G1 X86.304 Y114.520 E6.05237
G1 X86.067 Y113.023 E6.09736
G1 X85.924 Y111.515 E6.14236
G1 X85.877 Y110.000 E6.18736
G1 X85.924 Y108.485 E6.23235
G1 X86.067 Y106.977 E6.27735
G1 X86.304 Y105.480 E6.32234
G1 X86.635 Y104.001 E6.36734
G1 X87.057 Y102.545 E6.41234
G1 X87.571 Y101.120 E6.45733
G1 X88.173 Y99.729 E6.50233
G1 X88.861 Y98.379 E6.54732
G1 X89.632 Y97.074 E6.59232
G1 X90.484 Y95.821 E6.63732
G1 X91.413 Y94.623 E6.68231
G1 X92.415 Y93.486 E6.72731
G1 X93.486 Y92.415 E6.77231
G1 X94.623 Y91.413 E6.81730
G1 X95.821 Y90.484 E6.86230
G1 X97.074 Y89.632 E6.90730
G1 X98.379 Y88.861 E6.95229
G1 X99.729 Y88.173 E6.99729
G1 X101.120 Y87.571 E7.04228
G1 X102.545 Y87.057 E7.08728
G1 X104.001 Y86.635 E7.13228
G1 X105.480 Y86.304 E7.17727
G1 X106.977 Y86.067 E7.22227
G1 X108.485 Y85.924 E7.26726
G1 X108.986 Y85.909 E7.28213
G1 X110.000 Y85.877 E7.31226 F1200.000
G1 X111.515 Y85.924 E7.35726
G1 X113.023 Y86.067 E7.40225
G1 X114.520 Y86.304 E7.44725
G1 X115.999 Y86.634 E7.49224
G1 X117.455 Y87.057 E7.53724
G1 X118.880 Y87.571 E7.58224
G1 X120.271 Y88.173 E7.62723
G1 X121.621 Y88.861 E7.67223
G1 X122.926 Y89.632 E7.71722
G1 X124.179 Y90.484 E7.76222
G1 X125.377 Y91.413 E7.80722
G1 X126.514 Y92.415 E7.85221
G1 X127.585 Y93.486 E7.89721
G1 X127.916 Y93.862 E7.91208
G1 X128.587 Y94.623 E7.94221
G1 X129.516 Y95.821 E7.98720
G1 X130.368 Y97.074 E8.03220
G1 X131.139 Y98.379 E8.07720
G1 X131.827 Y99.729 E8.12219
G1 X132.429 Y101.120 E8.16719
G1 X132.599 Y101.591 E8.18206
G1 X132.943 Y102.545 E8.21218
G1 X133.365 Y104.001 E8.25718
G1 X133.696 Y105.480 E8.30218
G1 X133.933 Y106.977 E8.34717
G1 X134.076 Y108.485 E8.39217
G1 X134.123 Y110.000 E8.43716
G1 X134.108 Y110.501 E8.45203
G1 X134.076 Y111.515 E8.48216
G1 X133.933 Y113.023 E8.52716
G1 X133.696 Y114.520 E8.57215
G1 X133.365 Y115.999 E8.61715
G1 X132.943 Y117.455 E8.66215
G1 X132.429 Y118.880 E8.70714
G1 X131.827 Y120.271 E8.75214
G1 X131.139 Y121.621 E8.79713
G1 X130.368 Y122.926 E8.84213
G1 X129.516 Y124.179 E8.88713
G1 X128.587 Y125.377 E8.93212
G1 X127.585 Y126.514 E8.97712
G1 X127.092 Y127.007 E8.99783
G1 X126.797 Y126.797 F7800.000
G1 X126.269 Y127.325 E9.02000 F1200.000
G1 X125.149 Y128.312 E9.06433
G1 X123.969 Y129.227 E9.10866
G1 X122.734 Y130.066 E9.15299
G1 X121.449 Y130.826 E9.19732
G1 X120.119 Y131.504 E9.24165
G1 X118.749 Y132.097 E9.28598
G1 X117.344 Y132.603 E9.33031
G1 X115.910 Y133.019 E9.37464
G1 X114.453 Y133.345 E9.41897
G1 X112.979 Y133.579 E9.46330
G1 X111.492 Y133.719 E9.50763
G1 X110.000 Y133.766 E9.55196
G1 X108.508 Y133.719 E9.59629
G1 X107.021 Y133.579 E9.64062
G1 X105.547 Y133.345 E9.68495
G1 X104.090 Y133.019 E9.72928
G1 X102.656 Y132.603 E9.77361
G1 X101.251 Y132.097 E9.81794
G1 X99.881 Y131.504 E9.86227
G1 X98.551 Y130.826 E9.90659
G1 X97.266 Y130.066 E9.95092
G1 X96.031 Y129.227 E9.99525
G1 X94.851 Y128.312 E10.03958
G1 X93.731 Y127.325 E10.08391
G1 X92.675 Y126.269 E10.12824
G1 X91.688 Y125.149 E10.17257
G1 X90.773 Y123.969 E10.21690
G1 X89.934 Y122.734 E10.26123
G1 X89.174 Y121.449 E10.30556
G1 X88.496 Y120.119 E10.34989
G1 X87.903 Y118.749 E10.39422
G1 X87.397 Y117.344 E10.43855
G1 X86.981 Y115.910 E10.48288
G1 X86.655 Y114.453 E10.52721
G1 X86.421 Y112.979 E10.57154
G1 X86.281 Y111.492 E10.61587
G1 X86.234 Y110.000 E10.66020
G1 X86.281 Y108.508 E10.70453
G1 X86.421 Y107.021 E10.74886
G1 X86.655 Y105.547 E10.79319
G1 X86.981 Y104.090 E10.83752
G1 X87.397 Y102.656 E10.88185
G1 X87.903 Y101.251 E10.92618
G1 X88.496 Y99.881 E10.97051
G1 X89.174 Y98.551 E11.01484
G1 X89.934 Y97.266 E11.05917
G1 X90.773 Y96.031 E11.10350
G1 X91.688 Y94.851 E11.14783
G1 X92.675 Y93.731 E11.19216
G1 X93.731 Y92.675 E11.23649
G1 X94.851 Y91.688 E11.28082
G1 X96.031 Y90.773 E11.32515
G1 X97.266 Y89.934 E11.36948
G1 X98.551 Y89.174 E11.41381
G1 X99.881 Y88.496 E11.45814
G1 X101.251 Y87.903 E11.50247
G1 X102.656 Y87.397 E11.54680
G1 X104.090 Y86.981 E11.59113
G1 X105.547 Y86.655 E11.63546
G1 X107.021 Y86.421 E11.67979
G1 X108.508 Y86.281 E11.72412
G1 X108.997 Y86.265 E11.73865
G1 X110.000 Y86.234 E11.76845 F1200.000
G1 X111.492 Y86.281 E11.81278
G1 X112.979 Y86.421 E11.85711
G1 X114.453 Y86.655 E11.90144
G1 X115.910 Y86.981 E11.94577
G1 X117.344 Y87.397 E11.99010
G1 X118.749 Y87.903 E12.03442
G1 X120.119 Y88.496 E12.07876
G1 X121.449 Y89.174 E12.12308
G1 X122.734 Y89.934 E12.16741
G1 X123.969 Y90.773 E12.21174
G1 X125.149 Y91.688 E12.25607
G1 X126.269 Y92.675 E12.30040
G1 X127.325 Y93.731 E12.34473
G1 X127.649 Y94.098 E12.35927
G1 X128.312 Y94.851 E12.38906
G1 X129.227 Y96.031 E12.43339
G1 X130.066 Y97.266 E12.47772
G1 X130.826 Y98.551 E12.52205
G1 X131.504 Y99.881 E12.56638
G1 X132.097 Y101.251 E12.61071
G1 X132.263 Y101.712 E12.62525
G1 X132.603 Y102.656 E12.65504
G1 X133.019 Y104.090 E12.69937
G1 X133.345 Y105.547 E12.74370
