; generated by Slic3r 1.2.9 on 2018-09-24 at 13:03:54

; external perimeters extrusion width = 0.40mm
; perimeters extrusion width = 0.40mm
; infill extrusion width = 0.40mm
; solid infill extrusion width = 0.40mm
; top infill extrusion width = 0.40mm

M190 S75 ; set bed temperature
M104 S235 ; set temperature
G28 ; home all axes
G1 Z5 F5000 ; lift nozzle

M109 S235 ; wait for temperature to be reached
G21 ; set units to millimeters
G90 ; use absolute coordinates
M82 ; use absolute distances for extrusion
G92 E0
G1 Z0.200 F7800.000
G1 E-4.50000 F2700.00000
G92 E0
G1 X14.990 Y79.383 F7800.000
G1 E4.50000 F2700.00000
G1 X17.883 Y78.967 E4.57375 F2100.000
G1 X193.139 Y75.719 E8.99756
G1 X193.976 Y75.737 E9.01870 F2100.000
G1 X194.961 Y75.799 E9.04361
G1 X195.794 Y75.886 E9.06475
G1 X196.769 Y76.030 E9.08962
G1 X197.593 Y76.187 E9.11078
G1 X198.557 Y76.414 E9.13578
G1 X199.363 Y76.639 E9.15690
G1 X200.299 Y76.943 E9.18174
G1 X201.084 Y77.235 E9.20288
G1 X201.993 Y77.617 E9.22777
G1 X202.751 Y77.974 E9.24891
G1 X203.629 Y78.433 E9.27390
G1 X204.354 Y78.851 E9.29503
G1 X205.184 Y79.378 E9.31983
G1 X205.872 Y79.856 E9.34097
G1 X206.661 Y80.455 E9.36598
G1 X207.307 Y80.990 E9.38714
G1 X208.034 Y81.644 E9.41182
G1 X208.633 Y82.230 E9.43297
G1 X209.315 Y82.956 E9.45810
G1 X209.862 Y83.590 E9.47924
G1 X210.475 Y84.364 E9.50417
G1 X210.967 Y85.042 E9.52530
G1 X211.510 Y85.859 E9.55007
G1 X211.945 Y86.577 E9.57125
G1 X212.392 Y87.385 E9.59457
G1 X213.436 Y90.346 E9.67379
G1 X213.684 Y92.750 E9.73479
G1 X213.684 Y127.250 E10.60549
G1 X213.286 Y130.288 E10.68282
G1 X212.425 Y132.549 E10.74388
G1 X211.944 Y133.424 E10.76907
G1 X211.510 Y134.141 E10.79021
G1 X210.967 Y134.958 E10.81499
G1 X210.475 Y135.636 E10.83612
G1 X209.862 Y136.410 E10.86105
G1 X209.313 Y137.046 E10.88224
G1 X208.632 Y137.771 E10.90734
G1 X208.033 Y138.357 E10.92849
G1 X207.307 Y139.010 E10.95313
G1 X206.662 Y139.544 E10.97427
G1 X205.872 Y140.144 E10.99930
G1 X205.184 Y140.622 E11.02046
G1 X204.354 Y141.148 E11.04525
G1 X203.628 Y141.568 E11.06641
G1 X202.753 Y142.026 E11.09136
G1 X201.994 Y142.383 E11.11252
G1 X201.086 Y142.764 E11.13738
G1 X200.300 Y143.057 E11.15853
G1 X199.364 Y143.361 E11.18338
G1 X198.557 Y143.586 E11.20452
G1 X197.593 Y143.813 E11.22952
G1 X196.770 Y143.970 E11.25067
G1 X195.795 Y144.113 E11.27553
G1 X194.962 Y144.201 E11.29667
G1 X193.976 Y144.263 E11.32160
G1 X193.139 Y144.281 E11.34273
G1 X17.883 Y141.033 E15.76654
G1 X14.852 Y140.579 E15.84387
G1 X12.042 Y139.358 E15.92120
G1 X9.641 Y137.455 E15.99853
G1 X7.812 Y134.996 E16.07586
G1 X6.678 Y132.150 E16.15319
G1 X6.316 Y129.250 E16.22694
G1 X6.316 Y90.750 E17.19858
G1 X6.714 Y87.712 E17.27591
G1 X7.882 Y84.879 E17.35324
G1 X9.741 Y82.443 E17.43057
G1 X12.165 Y80.569 E17.50790
G1 X14.935 Y79.406 E17.58372
G1 X15.132 Y79.739 F7800.000
G1 X15.308 Y79.668 E17.58850 F2100.000
G1 X17.889 Y79.324 E17.65422
G1 X193.131 Y76.076 E22.07767
G1 X193.969 Y76.094 E22.09882 F2100.000
G1 X194.924 Y76.154 E22.12297
G1 X195.757 Y76.242 E22.14411
G1 X196.703 Y76.381 E22.16823
G1 X197.526 Y76.538 E22.18939
G1 X198.461 Y76.758 E22.21363
G1 X199.267 Y76.983 E22.23475
G1 X200.175 Y77.278 E22.25884
G1 X200.960 Y77.570 E22.27997
G1 X201.841 Y77.940 E22.30411
G1 X202.599 Y78.297 E22.32525
G1 X203.450 Y78.742 E22.34948
G1 X204.175 Y79.161 E22.37061
G1 X204.980 Y79.671 E22.39466
G1 X205.668 Y80.149 E22.41580
G1 X206.433 Y80.730 E22.44006
G1 X207.079 Y81.265 E22.46122
G1 X207.784 Y81.899 E22.48515
G1 X208.383 Y82.485 E22.50630
G1 X209.044 Y83.189 E22.53067
G1 X209.591 Y83.823 E22.55180
G1 X210.186 Y84.574 E22.57598
G1 X210.678 Y85.251 E22.59711
G1 X211.205 Y86.044 E22.62113
G1 X211.640 Y86.762 E22.64231
G1 X212.107 Y87.613 E22.66682
G1 X213.096 Y90.464 E22.74297
G1 X213.327 Y92.750 E22.80096
G1 X213.327 Y127.250 E23.67166
G1 X212.929 Y130.241 E23.74780
G1 X212.106 Y132.389 E23.80585
G1 X211.639 Y133.239 E23.83034
G1 X211.205 Y133.956 E23.85148
G1 X210.678 Y134.748 E23.87550
G1 X210.186 Y135.426 E23.89664
G1 X209.591 Y136.177 E23.92081
G1 X209.043 Y136.813 E23.94200
G1 X208.383 Y137.515 E23.96634
G1 X207.784 Y138.101 E23.98749
G1 X207.080 Y138.735 E24.01139
G1 X206.435 Y139.269 E24.03252
G1 X205.669 Y139.850 E24.05679
G1 X204.980 Y140.329 E24.07795
G1 X204.176 Y140.839 E24.10199
G1 X203.450 Y141.259 E24.12315
G1 X202.600 Y141.703 E24.14734
G1 X201.842 Y142.060 E24.16851
G1 X200.961 Y142.430 E24.19261
G1 X200.176 Y142.722 E24.21376
G1 X199.268 Y143.017 E24.23786
G1 X198.461 Y143.243 E24.25900
G1 X197.526 Y143.462 E24.28324
G1 X196.703 Y143.619 E24.30439
G1 X195.758 Y143.758 E24.32849
G1 X194.925 Y143.846 E24.34963
G1 X193.969 Y143.906 E24.37381
G1 X193.131 Y143.924 E24.39495
G1 X17.889 Y140.676 E28.81840
G1 X14.906 Y140.223 E28.89454
G1 X12.146 Y139.004 E28.97068
G1 X9.801 Y137.106 E29.04683
G1 X8.035 Y134.660 E29.12297
G1 X6.970 Y131.837 E29.19911
G1 X6.673 Y129.250 E29.26483
G1 X6.673 Y90.750 E30.23648
G1 X7.071 Y87.759 E30.31263
G1 X8.238 Y84.977 E30.38877
G1 X10.093 Y82.597 E30.46491
G1 X12.505 Y80.786 E30.54106
G1 X15.076 Y79.761 E30.61090
G1 X15.266 Y80.094 F7800.000
G1 X15.624 Y79.960 E30.62055 F2100.000
G1 X17.896 Y79.681 E30.67832
G1 X193.124 Y76.433 E35.10142
G1 X193.961 Y76.451 E35.12256 F2100.000
G1 X194.887 Y76.509 E35.14596
G1 X195.720 Y76.597 E35.16710
G1 X196.636 Y76.732 E35.19046
G1 X197.459 Y76.889 E35.21162
G1 X198.365 Y77.101 E35.23511
G1 X199.171 Y77.327 E35.25623
G1 X200.050 Y77.613 E35.27956
G1 X200.836 Y77.904 E35.30070
G1 X201.689 Y78.263 E35.32408
G1 X202.447 Y78.620 E35.34522
G1 X203.272 Y79.051 E35.36870
G1 X203.997 Y79.470 E35.38983
G1 X204.776 Y79.964 E35.41313
G1 X205.464 Y80.442 E35.43427
G1 X206.206 Y81.005 E35.45776
G1 X206.852 Y81.540 E35.47892
G1 X207.534 Y82.154 E35.50210
G1 X208.134 Y82.740 E35.52326
G1 X208.774 Y83.422 E35.54686
G1 X209.321 Y84.056 E35.56800
G1 X209.897 Y84.784 E35.59142
G1 X210.389 Y85.461 E35.61255
G1 X210.899 Y86.229 E35.63582
G1 X211.334 Y86.947 E35.65699
G1 X211.788 Y87.774 E35.68080
G1 X212.755 Y90.581 E35.75574
G1 X212.970 Y92.750 E35.81075
G1 X212.970 Y127.250 E36.68144
G1 X212.572 Y130.193 E36.75638
G1 X211.787 Y132.228 E36.81144
G1 X211.334 Y133.054 E36.83522
G1 X210.900 Y133.771 E36.85636
G1 X210.389 Y134.539 E36.87963
G1 X209.897 Y135.216 E36.90077
G1 X209.321 Y135.944 E36.92419
G1 X208.773 Y136.579 E36.94538
G1 X208.133 Y137.260 E36.96895
G1 X207.534 Y137.846 E36.99010
G1 X206.852 Y138.460 E37.01326
G1 X206.207 Y138.994 E37.03439
G1 X205.465 Y139.557 E37.05790
G1 X204.776 Y140.036 E37.07906
G1 X203.997 Y140.530 E37.10235
G1 X203.271 Y140.949 E37.12351
G1 X202.448 Y141.380 E37.14694
G1 X201.690 Y141.737 E37.16811
G1 X200.837 Y142.095 E37.19146
G1 X200.051 Y142.387 E37.21261
G1 X199.171 Y142.673 E37.23596
G1 X198.365 Y142.899 E37.25709
G1 X197.459 Y143.111 E37.28058
G1 X196.636 Y143.268 E37.30172
G1 X195.720 Y143.403 E37.32508
G1 X194.887 Y143.491 E37.34621
G1 X193.961 Y143.549 E37.36964
G1 X193.124 Y143.567 E37.39077
G1 X17.896 Y140.319 E41.81387
G1 X14.961 Y139.867 E41.88881
G1 X12.252 Y138.650 E41.96375
G1 X9.964 Y136.757 E42.03868
G1 X8.262 Y134.325 E42.11362
G1 X7.267 Y131.527 E42.18856
G1 X7.030 Y129.250 E42.24634
G1 X7.030 Y90.750 E43.21799
G1 X7.428 Y87.807 E43.29293
G1 X8.594 Y85.077 E43.36786
G1 X10.444 Y82.754 E43.44280
G1 X12.845 Y81.006 E43.51774
G1 X15.210 Y80.116 E43.58152
G1 X15.392 Y80.450 F7800.000
G1 X15.937 Y80.257 E43.59611 F2100.000
G1 X17.902 Y80.038 E43.64603
G1 X193.116 Y76.790 E48.06877
G1 X193.954 Y76.808 E48.08991 F2100.000
G1 X194.849 Y76.864 E48.11256
G1 X195.682 Y76.952 E48.13370
G1 X196.569 Y77.083 E48.15631
G1 X197.392 Y77.240 E48.17747
G1 X198.269 Y77.445 E48.20019
G1 X199.075 Y77.671 E48.22131
G1 X199.926 Y77.947 E48.24390
G1 X200.711 Y78.239 E48.26503
G1 X201.537 Y78.586 E48.28766
G1 X202.295 Y78.943 E48.30880
G1 X203.093 Y79.360 E48.33152
G1 X203.818 Y79.779 E48.35265
G1 X204.573 Y80.258 E48.37520
G1 X205.261 Y80.736 E48.39634
G1 X205.978 Y81.280 E48.41908
G1 X206.624 Y81.815 E48.44023
G1 X207.285 Y82.410 E48.46267
G1 X207.884 Y82.996 E48.48382
G1 X208.504 Y83.655 E48.50667
G1 X209.051 Y84.289 E48.52780
G1 X209.608 Y84.993 E48.55047
G1 X210.100 Y85.671 E48.57160
G1 X210.594 Y86.414 E48.59412
G1 X211.029 Y87.132 E48.61529
G1 X211.469 Y87.934 E48.63839
G1 X212.414 Y90.698 E48.71211
G1 X212.613 Y92.750 E48.76414
G1 X212.613 Y127.250 E49.63484
G1 X212.215 Y130.144 E49.70855
G1 X211.468 Y132.068 E49.76063
G1 X211.028 Y132.869 E49.78371
G1 X210.594 Y133.586 E49.80485
G1 X210.100 Y134.329 E49.82737
G1 X209.608 Y135.006 E49.84851
G1 X209.051 Y135.710 E49.87117
G1 X208.502 Y136.346 E49.89236
G1 X207.883 Y137.005 E49.91517
G1 X207.284 Y137.591 E49.93632
G1 X206.624 Y138.185 E49.95873
G1 X205.979 Y138.719 E49.97986
G1 X205.261 Y139.264 E50.00262
G1 X204.573 Y139.742 E50.02378
G1 X203.819 Y140.221 E50.04631
G1 X203.093 Y140.640 E50.06747
G1 X202.296 Y141.056 E50.09015
G1 X201.538 Y141.413 E50.11131
G1 X200.712 Y141.760 E50.13391
G1 X199.927 Y142.053 E50.15506
G1 X199.075 Y142.329 E50.17766
G1 X198.269 Y142.555 E50.19879
G1 X197.392 Y142.760 E50.22152
G1 X196.569 Y142.917 E50.24266
G1 X195.683 Y143.048 E50.26526
G1 X194.850 Y143.136 E50.28640
G1 X193.954 Y143.192 E50.30907
G1 X193.116 Y143.210 E50.33021
G1 X17.902 Y139.962 E54.75294
G1 X15.017 Y139.510 E54.82666
G1 X12.360 Y138.296 E54.90038
G1 X10.131 Y136.409 E54.97409
G1 X8.493 Y133.991 E55.04781
G1 X7.570 Y131.220 E55.12152
G1 X7.387 Y129.250 E55.17144
G1 X7.387 Y90.750 E56.14309
G1 X7.785 Y87.856 E56.21680
G1 X8.950 Y85.178 E56.29052
G1 X10.795 Y82.913 E56.36423
G1 X13.183 Y81.231 E56.43795
G1 X15.335 Y80.470 E56.49556
G1 X15.509 Y80.804 F7800.000
G1 X16.247 Y80.560 E56.51518 F2100.000
G1 X17.909 Y80.395 E56.55734
G1 X193.109 Y77.147 E60.97972
G1 X193.947 Y77.165 E61.00086 F2100.000
G1 X194.812 Y77.219 E61.02275
G1 X195.645 Y77.307 E61.04389
G1 X196.502 Y77.433 E61.06575
G1 X197.325 Y77.590 E61.08691
G1 X198.173 Y77.789 E61.10888
G1 X198.979 Y78.015 E61.13000
G1 X199.802 Y78.282 E61.15183
G1 X200.587 Y78.574 E61.17297
G1 X201.385 Y78.910 E61.19484
G1 X202.143 Y79.266 E61.21598
G1 X202.915 Y79.669 E61.23794
G1 X203.640 Y80.088 E61.25907
G1 X204.369 Y80.551 E61.28087
G1 X205.057 Y81.029 E61.30201
G1 X205.751 Y81.555 E61.32399
G1 X206.396 Y82.090 E61.34515
G1 X207.035 Y82.665 E61.36683
G1 X207.634 Y83.251 E61.38798
G1 X208.233 Y83.889 E61.41007
G1 X208.780 Y84.523 E61.43120
G1 X209.319 Y85.203 E61.45311
G1 X209.811 Y85.881 E61.47425
G1 X210.289 Y86.599 E61.49601
G1 X210.723 Y87.317 E61.51718
G1 X211.150 Y88.095 E61.53958
G1 X212.073 Y90.814 E61.61205
G1 X212.256 Y92.750 E61.66113
G1 X212.256 Y127.250 E62.53183
G1 X211.858 Y130.094 E62.60430
G1 X211.149 Y131.907 E62.65343
G1 X210.723 Y132.684 E62.67580
G1 X210.289 Y133.400 E62.69694
G1 X209.811 Y134.119 E62.71871
G1 X209.319 Y134.797 E62.73984
G1 X208.780 Y135.477 E62.76175
G1 X208.232 Y136.113 E62.78294
G1 X207.634 Y136.750 E62.80499
G1 X207.035 Y137.336 E62.82614
G1 X206.397 Y137.910 E62.84780
G1 X205.752 Y138.444 E62.86893
G1 X205.057 Y138.971 E62.89093
G1 X204.369 Y139.449 E62.91209
G1 X203.640 Y139.912 E62.93388
G1 X202.914 Y140.331 E62.95503
G1 X202.144 Y140.733 E62.97695
G1 X201.386 Y141.090 E62.99812
G1 X200.588 Y141.426 E63.01997
G1 X199.802 Y141.718 E63.04111
G1 X198.979 Y141.985 E63.06295
G1 X198.173 Y142.211 E63.08409
G1 X197.325 Y142.410 E63.10606
G1 X196.502 Y142.567 E63.12720
G1 X195.646 Y142.693 E63.14905
G1 X194.813 Y142.781 E63.17019
G1 X193.946 Y142.835 E63.19210
G1 X193.109 Y142.853 E63.21324
G1 X17.909 Y139.605 E67.63562
G1 X15.073 Y139.154 E67.70809
G1 X12.470 Y137.942 E67.78056
G1 X10.300 Y136.062 E67.85303
G1 X8.729 Y133.658 E67.92550
G1 X7.879 Y130.915 E67.99797
G1 X7.744 Y129.250 E68.04013
G1 X7.744 Y90.750 E69.01178
G1 X8.142 Y87.906 E69.08425
G1 X9.306 Y85.281 E69.15672
G1 X11.146 Y83.076 E69.22919
G1 X13.520 Y81.461 E69.30166
G1 X15.452 Y80.823 E69.35301
G1 E64.85301 F2700.00000
G92 E0
G1 X43.301 Y126.450 F7800.000
G1 E4.50000 F2700.00000
G1 X43.301 Y118.550 E4.69938 F2100.000
G1 X18.301 Y118.550 E5.33032
G1 X18.301 Y115.950 E5.39593
G1 X185.821 Y115.950 E9.62373
G1 X186.245 Y115.498 E9.63935
G1 X186.855 Y114.949 E9.66008
G1 X187.509 Y114.453 E9.68079
G1 X188.202 Y114.013 E9.70150
G1 X188.929 Y113.633 E9.72221
G1 X189.685 Y113.315 E9.74292
G1 X190.466 Y113.061 E9.76365
G1 X191.265 Y112.874 E9.78435
G1 X192.077 Y112.754 E9.80507
G1 X192.924 Y112.703 E9.82649
G1 X193.717 Y112.719 E9.84650
G1 X194.533 Y112.805 E9.86721
G1 X195.340 Y112.959 E9.88793
G1 X196.130 Y113.180 E9.90863
G1 X196.899 Y113.466 E9.92935
G1 X197.642 Y113.815 E9.95007
G1 X198.352 Y114.226 E9.97077
G1 X199.026 Y114.694 E9.99149
G1 X199.659 Y115.217 E10.01220
G1 X200.246 Y115.792 E10.03292
G1 X200.782 Y116.413 E10.05363
G1 X201.263 Y117.076 E10.07433
G1 X201.546 Y117.550 E10.08825
G1 X193.096 Y117.550 E10.30150
G1 X192.585 Y117.577 E10.31444
G1 X192.174 Y117.637 E10.32491
G1 X191.771 Y117.732 E10.33537
G1 X191.376 Y117.860 E10.34585
G1 X190.994 Y118.021 E10.35629
G1 X190.626 Y118.213 E10.36676
G1 X190.276 Y118.435 E10.37723
G1 X189.946 Y118.686 E10.38770
G1 X189.638 Y118.963 E10.39815
G1 X189.354 Y119.265 E10.40862
G1 X189.097 Y119.590 E10.41908
G1 X188.867 Y119.936 E10.42954
G1 X188.667 Y120.299 E10.44001
G1 X188.499 Y120.678 E10.45047
G1 X188.363 Y121.069 E10.46093
G1 X188.260 Y121.471 E10.47139
G1 X188.190 Y121.880 E10.48186
G1 X188.156 Y122.293 E10.49232
G1 X188.156 Y122.707 E10.50278
G1 X188.190 Y123.120 E10.51325
G1 X188.260 Y123.529 E10.52372
G1 X188.363 Y123.931 E10.53418
G1 X188.499 Y124.322 E10.54464
G1 X188.667 Y124.701 E10.55509
G1 X188.867 Y125.064 E10.56556
G1 X189.097 Y125.410 E10.57602
G1 X189.354 Y125.735 E10.58649
G1 X189.638 Y126.037 E10.59696
G1 X189.946 Y126.314 E10.60741
G1 X190.276 Y126.565 E10.61788
G1 X190.626 Y126.787 E10.62834
G1 X190.994 Y126.979 E10.63882
G1 X191.376 Y127.140 E10.64926
G1 X191.771 Y127.268 E10.65974
G1 X192.174 Y127.363 E10.67020
G1 X192.584 Y127.423 E10.68065
G1 X192.996 Y127.449 E10.69108
G1 X201.546 Y127.450 E10.90686
G1 X201.263 Y127.924 E10.92079
G1 X200.782 Y128.587 E10.94148
G1 X200.246 Y129.208 E10.96219
G1 X199.659 Y129.783 E10.98291
G1 X199.026 Y130.306 E11.00362
G1 X198.352 Y130.774 E11.02434
G1 X197.642 Y131.185 E11.04505
G1 X196.899 Y131.534 E11.06576
G1 X196.130 Y131.820 E11.08648
G1 X195.340 Y132.041 E11.10718
G1 X194.533 Y132.195 E11.12790
G1 X193.717 Y132.281 E11.14861
G1 X192.897 Y132.298 E11.16932
G1 X192.077 Y132.246 E11.19004
G1 X191.265 Y132.126 E11.21076
G1 X190.466 Y131.939 E11.23147
G1 X189.686 Y131.685 E11.25219
G1 X188.904 Y131.354 E11.27360
G1 X188.202 Y130.987 E11.29361
G1 X187.509 Y130.547 E11.31432
G1 X186.855 Y130.051 E11.33503
G1 X186.245 Y129.502 E11.35576
G1 X185.821 Y129.050 E11.37138
G1 X18.301 Y129.050 E15.59918
G1 X18.301 Y126.450 E15.66480
G1 X43.241 Y126.450 E16.29422
G1 X43.315 Y126.658 F7800.000
G1 X45.499 Y128.842 E16.37229 F2100.000
G1 X44.994 Y128.842 E16.38507
G1 X42.809 Y126.658 E16.46314
G1 X42.304 Y126.658 E16.47592
G1 X44.488 Y128.842 E16.55399
G1 X43.982 Y128.842 E16.56676
G1 X41.798 Y126.658 E16.64483
G1 X41.292 Y126.658 E16.65761
G1 X43.477 Y128.842 E16.73568
G1 X42.971 Y128.842 E16.74846
G1 X40.787 Y126.658 E16.82653
G1 X40.281 Y126.658 E16.83931
G1 X42.466 Y128.842 E16.91738
G1 X41.960 Y128.842 E16.93015
G1 X39.775 Y126.658 E17.00822
G1 X39.270 Y126.658 E17.02100
G1 X41.454 Y128.842 E17.09907
G1 X40.949 Y128.842 E17.11185
G1 X38.764 Y126.658 E17.18992
G1 X38.258 Y126.658 E17.20270
G1 X40.443 Y128.842 E17.28077
G1 X39.937 Y128.842 E17.29354
G1 X37.753 Y126.658 E17.37161
G1 X37.247 Y126.658 E17.38439
G1 X39.432 Y128.842 E17.46246
G1 X38.926 Y128.842 E17.47524
G1 X36.742 Y126.658 E17.55331
G1 X36.236 Y126.658 E17.56609
G1 X38.420 Y128.842 E17.64416
G1 X37.915 Y128.842 E17.65693
G1 X35.730 Y126.658 E17.73500
G1 X35.225 Y126.658 E17.74778
G1 X37.409 Y128.842 E17.82585
G1 X36.904 Y128.842 E17.83863
G1 X34.719 Y126.658 E17.91670
G1 X34.213 Y126.658 E17.92948
G1 X36.398 Y128.842 E18.00755
G1 X35.892 Y128.842 E18.02032
G1 X33.708 Y126.658 E18.09839
G1 X33.202 Y126.658 E18.11117
G1 X35.387 Y128.842 E18.18924
