; generated by Slic3r 1.2.9 on 2018-09-17 at 12:22:33

; external perimeters extrusion width = 0.40mm
; perimeters extrusion width = 0.67mm
; infill extrusion width = 0.67mm
; solid infill extrusion width = 0.67mm
; top infill extrusion width = 0.67mm

M107
M190 S90 ; set bed temperature
M104 S230 ; set temperature
G28 ; home all axes
G1 Z5 F5000 ; lift nozzle

M109 S230 ; wait for temperature to be reached
G21 ; set units to millimeters
G90 ; use absolute coordinates
M82 ; use absolute distances for extrusion
G92 E0
G1 Z-0.100 F7800.000
G1 E-4.50000 F2700.00000
G92 E0
G1 X97.498 Y95.805 F7800.000
G1 E4.50000 F2700.00000
G1 X99.776 Y94.599 E4.52296 F1200.000
G1 X102.500 Y94.143 E4.54756
G1 X117.500 Y94.143 E4.68117
G1 X120.047 Y94.541 E4.70413
G1 X122.352 Y95.696 E4.72710 F1200.000
G1 X124.195 Y97.498 E4.75006
G1 X125.401 Y99.776 E4.77302
G1 X125.857 Y102.500 E4.79762
G1 X125.857 Y117.500 E4.93123
G1 X125.459 Y120.047 E4.95419
G1 X124.304 Y122.352 E4.97716
G1 X122.502 Y124.195 E5.00012
G1 X120.224 Y125.401 E5.02308
G1 X117.500 Y125.857 E5.04768
G1 X102.500 Y125.857 E5.18129
G1 X99.953 Y125.459 E5.20425
G1 X97.648 Y124.304 E5.22721
G1 X95.805 Y122.502 E5.25018
G1 X94.599 Y120.224 E5.27314
G1 X94.143 Y117.500 E5.29774
G1 X94.143 Y102.500 E5.43135
G1 X94.541 Y99.953 E5.45431
G1 X95.696 Y97.648 E5.47727
G1 X97.456 Y95.848 E5.49970
G1 X97.632 Y95.939 F7800.000
G1 X97.671 Y95.899 E5.50020 F1200.000
G1 X99.939 Y94.733 E5.52291
G1 X102.500 Y94.321 E5.54602
G1 X117.500 Y94.321 E5.67963
G1 X120.019 Y94.719 E5.70234
G1 X122.293 Y95.873 E5.72506 F1200.000
G1 X124.101 Y97.671 E5.74777
G1 X125.267 Y99.939 E5.77048
G1 X125.679 Y102.500 E5.79359
G1 X125.679 Y117.500 E5.92720
G1 X125.281 Y120.019 E5.94991
G1 X124.127 Y122.293 E5.97263
G1 X122.329 Y124.101 E5.99534
G1 X120.061 Y125.267 E6.01806
G1 X117.500 Y125.679 E6.04116
G1 X102.500 Y125.679 E6.17477
G1 X99.981 Y125.281 E6.19749
G1 X97.707 Y124.127 E6.22020
G1 X95.899 Y122.329 E6.24291
G1 X94.733 Y120.061 E6.26563
G1 X94.321 Y117.500 E6.28873
G1 X94.321 Y102.500 E6.42234
G1 X94.719 Y99.981 E6.44506
G1 X95.873 Y97.707 E6.46777
G1 X97.590 Y95.981 E6.48946
G1 E1.98946 F2700.00000
G92 E0
G1 X117.043 Y117.043 F7800.000
G1 E4.50000 F2700.00000
G1 X102.957 Y117.043 E4.62547 F1200.000
G1 X102.957 Y102.957 E4.75094
G1 X117.043 Y102.957 E4.87640
G1 X117.043 Y116.983 E5.00134
G1 X117.221 Y117.221 F7800.000
G1 X102.779 Y117.221 E5.12999 F1200.000
G1 X102.779 Y102.779 E5.25864
G1 X117.221 Y102.779 E5.38728
G1 X117.221 Y117.161 E5.51540
G1 X117.400 Y117.400 F7800.000
G1 X102.600 Y117.400 E5.64723 F1200.000
G1 X102.600 Y102.600 E5.77906
G1 X117.400 Y102.600 E5.91089
G1 X117.400 Y117.340 E6.04218
G1 X117.054 Y117.200 F7800.000
G1 X116.949 Y103.167 F7800.000
G1 X116.833 Y103.051 E6.04364 F1200.000
G1 X116.580 Y103.051 E6.04590
G1 X116.949 Y103.420 E6.05055
G1 X116.949 Y103.672 E6.05280
G1 X116.328 Y103.051 E6.06065
G1 X116.075 Y103.051 E6.06290
G1 X116.949 Y103.925 E6.07393
G1 X116.949 Y104.178 E6.07619
G1 X115.822 Y103.051 E6.09041
G1 X115.569 Y103.051 E6.09267
G1 X116.949 Y104.431 E6.11008
G1 X116.949 Y104.684 E6.11234
G1 X115.316 Y103.051 E6.13294
G1 X115.063 Y103.051 E6.13520
G1 X116.949 Y104.937 E6.15899
G1 X116.949 Y105.190 E6.16125
G1 X114.810 Y103.051 E6.18824
G1 X114.557 Y103.051 E6.19049
G1 X116.949 Y105.443 E6.22067
G1 X116.949 Y105.696 E6.22292
G1 X114.304 Y103.051 E6.25629
G1 X114.052 Y103.051 E6.25855
G1 X116.949 Y105.948 E6.29510
G1 X116.949 Y106.201 E6.29736
G1 X113.799 Y103.051 E6.33711
G1 X113.546 Y103.051 E6.33936
G1 X116.949 Y106.454 E6.38230
G1 X116.949 Y106.707 E6.38456
G1 X113.293 Y103.051 E6.43069
G1 X113.040 Y103.051 E6.43294
G1 X116.949 Y106.960 E6.48226
G1 X116.949 Y107.213 E6.48452
G1 X112.787 Y103.051 E6.53703
G1 X112.534 Y103.051 E6.53928
G1 X116.949 Y107.466 E6.59498
G1 X116.949 Y107.719 E6.59724
G1 X112.281 Y103.051 E6.65613
G1 X112.028 Y103.051 E6.65839
G1 X116.949 Y107.972 E6.72047
G1 X116.949 Y108.224 E6.72273
G1 X111.776 Y103.051 E6.78800
G1 X111.523 Y103.051 E6.79026
G1 X116.949 Y108.477 E6.85872
G1 X116.949 Y108.730 E6.86097
G1 X111.270 Y103.051 E6.93263
G1 X111.017 Y103.051 E6.93488
G1 X116.949 Y108.983 E7.00973
G1 X116.949 Y109.236 E7.01198
G1 X110.764 Y103.051 E7.09002
G1 X110.511 Y103.051 E7.09228
G1 X116.949 Y109.489 E7.17350
G1 X116.949 Y109.742 E7.17576
G1 X110.258 Y103.051 E7.26017
G1 X110.005 Y103.051 E7.26243
G1 X116.949 Y109.995 E7.35004
G1 X116.949 Y110.248 E7.35229
G1 X109.752 Y103.051 E7.44309
G1 X109.500 Y103.051 E7.44535
G1 X116.949 Y110.500 E7.53933
G1 X116.949 Y110.753 E7.54159
G1 X109.247 Y103.051 E7.63877
G1 X108.994 Y103.051 E7.64103
G1 X116.949 Y111.006 E7.74139
G1 X116.949 Y111.259 E7.74365
G1 X108.741 Y103.051 E7.84721
G1 X108.488 Y103.051 E7.84947
G1 X116.949 Y111.512 E7.95622
G1 X116.949 Y111.765 E7.95847
G1 X108.235 Y103.051 E8.06841
G1 X107.982 Y103.051 E8.07067
G1 X116.949 Y112.018 E8.18380
G1 X116.949 Y112.271 E8.18606
G1 X107.729 Y103.051 E8.30238
G1 X107.476 Y103.051 E8.30464
G1 X116.949 Y112.524 E8.42415
G1 X116.949 Y112.776 E8.42641
G1 X107.224 Y103.051 E8.54911
G1 X106.971 Y103.051 E8.55137
G1 X116.949 Y113.029 E8.67726
G1 X116.949 Y113.282 E8.67952
G1 X106.718 Y103.051 E8.80860
G1 X106.465 Y103.051 E8.81086
G1 X116.949 Y113.535 E8.94313
G1 X116.949 Y113.788 E8.94539
G1 X106.212 Y103.051 E9.08085
G1 X105.959 Y103.051 E9.08311
G1 X116.949 Y114.041 E9.22177
G1 X116.949 Y114.294 E9.22402
G1 X105.706 Y103.051 E9.36587
G1 X105.453 Y103.051 E9.36813
G1 X116.949 Y114.547 E9.51316
G1 X116.949 Y114.800 E9.51542
G1 X105.200 Y103.051 E9.66365
G1 X104.948 Y103.051 E9.66591
G1 X116.949 Y115.052 E9.81732
G1 X116.949 Y115.305 E9.81958
G1 X104.695 Y103.051 E9.97419
G1 X104.442 Y103.051 E9.97645
G1 X116.949 Y115.558 E10.13425
G1 X116.949 Y115.811 E10.13650
G1 X104.189 Y103.051 E10.29749
G1 X103.936 Y103.051 E10.29975
G1 X116.949 Y116.064 E10.46393
G1 X116.949 Y116.317 E10.46619
G1 X103.683 Y103.051 E10.63356
G1 X103.430 Y103.051 E10.63582
G1 X116.949 Y116.570 E10.80638
G1 X116.949 Y116.823 E10.80863
G1 X103.177 Y103.051 E10.98239
G1 X103.051 Y103.177 E10.98398
G1 X116.823 Y116.949 E11.15773
G1 X116.570 Y116.949 E11.15999
G1 X103.051 Y103.430 E11.33055
G1 X103.051 Y103.683 E11.33281
G1 X116.317 Y116.949 E11.50018
G1 X116.064 Y116.949 E11.50243
G1 X103.051 Y103.936 E11.66661
G1 X103.051 Y104.189 E11.66887
G1 X115.811 Y116.949 E11.82986
G1 X115.558 Y116.949 E11.83212
G1 X103.051 Y104.442 E11.98991
G1 X103.051 Y104.695 E11.99217
G1 X115.305 Y116.949 E12.14678
G1 X115.052 Y116.949 E12.14904
G1 X103.051 Y104.948 E12.30045
G1 X103.051 Y105.201 E12.30271
G1 X114.799 Y116.949 E12.45094
G1 X114.547 Y116.949 E12.45319
G1 X103.051 Y105.453 E12.59823
G1 X103.051 Y105.706 E12.60048
G1 X114.294 Y116.949 E12.74233
G1 X114.041 Y116.949 E12.74459
G1 X103.051 Y105.959 E12.88324
G1 X103.051 Y106.212 E12.88550
G1 X113.788 Y116.949 E13.02096
G1 X113.535 Y116.949 E13.02322
G1 X103.051 Y106.465 E13.15549
G1 X103.051 Y106.718 E13.15775
G1 X113.282 Y116.949 E13.28683
G1 X113.029 Y116.949 E13.28909
G1 X103.051 Y106.971 E13.41498
G1 X103.051 Y107.224 E13.41724
G1 X112.776 Y116.949 E13.53994
G1 X112.523 Y116.949 E13.54219
G1 X103.051 Y107.477 E13.66170
G1 X103.051 Y107.729 E13.66396
G1 X112.271 Y116.949 E13.78028
G1 X112.018 Y116.949 E13.78254
G1 X103.051 Y107.982 E13.89567
G1 X103.051 Y108.235 E13.89792
G1 X111.765 Y116.949 E14.00786
G1 X111.512 Y116.949 E14.01012
G1 X103.051 Y108.488 E14.11687
G1 X103.051 Y108.741 E14.11912
G1 X111.259 Y116.949 E14.22268
G1 X111.006 Y116.949 E14.22494
G1 X103.051 Y108.994 E14.32531
G1 X103.051 Y109.247 E14.32756
G1 X110.753 Y116.949 E14.42474
G1 X110.500 Y116.949 E14.42700
G1 X103.051 Y109.500 E14.52098
G1 X103.051 Y109.753 E14.52324
G1 X110.247 Y116.949 E14.61403
G1 X109.995 Y116.949 E14.61629
G1 X103.051 Y110.005 E14.70390
G1 X103.051 Y110.258 E14.70615
G1 X109.742 Y116.949 E14.79057
G1 X109.489 Y116.949 E14.79282
G1 X103.051 Y110.511 E14.87405
G1 X103.051 Y110.764 E14.87630
G1 X109.236 Y116.949 E14.95434
G1 X108.983 Y116.949 E14.95659
G1 X103.051 Y111.017 E15.03144
G1 X103.051 Y111.270 E15.03369
G1 X108.730 Y116.949 E15.10534
G1 X108.477 Y116.949 E15.10760
G1 X103.051 Y111.523 E15.17606
G1 X103.051 Y111.776 E15.17832
G1 X108.224 Y116.949 E15.24359
G1 X107.971 Y116.949 E15.24584
G1 X103.051 Y112.029 E15.30793
G1 X103.051 Y112.281 E15.31018
G1 X107.719 Y116.949 E15.36907
G1 X107.466 Y116.949 E15.37133
G1 X103.051 Y112.534 E15.42703
G1 X103.051 Y112.787 E15.42928
G1 X107.213 Y116.949 E15.48179
G1 X106.960 Y116.949 E15.48405
G1 X103.051 Y113.040 E15.53336
G1 X103.051 Y113.293 E15.53562
G1 X106.707 Y116.949 E15.58175
G1 X106.454 Y116.949 E15.58400
G1 X103.051 Y113.546 E15.62694
G1 X103.051 Y113.799 E15.62920
G1 X106.201 Y116.949 E15.66894
G1 X105.948 Y116.949 E15.67120
G1 X103.051 Y114.052 E15.70775
G1 X103.051 Y114.305 E15.71001
G1 X105.695 Y116.949 E15.74338
G1 X105.443 Y116.949 E15.74563
G1 X103.051 Y114.557 E15.77581
G1 X103.051 Y114.810 E15.77806
G1 X105.190 Y116.949 E15.80505
G1 X104.937 Y116.949 E15.80730
G1 X103.051 Y115.063 E15.83109
G1 X103.051 Y115.316 E15.83335
G1 X104.684 Y116.949 E15.85395
G1 X104.431 Y116.949 E15.85621
G1 X103.051 Y115.569 E15.87362
G1 X103.051 Y115.822 E15.87588
G1 X104.178 Y116.949 E15.89010
G1 X103.925 Y116.949 E15.89235
G1 X103.051 Y116.075 E15.90339
G1 X103.051 Y116.328 E15.90564
G1 X103.672 Y116.949 E15.91348
G1 X103.419 Y116.949 E15.91574
G1 X103.051 Y116.581 E15.92039
G1 X103.051 Y116.833 E15.92264
G1 X103.167 Y116.949 E15.92410
G1 Z0.100 F7800.000
G1 X116.179 Y116.179 F7800.000
G1 X103.821 Y116.179 E16.69887 F1200.000
G1 X103.821 Y103.821 E17.47364
G1 X116.179 Y103.821 E18.24841
G1 X116.179 Y116.119 E19.01942
G1 X116.807 Y116.807 F7800.000
G1 X103.193 Y116.807 E19.87297 F1200.000
G1 X103.193 Y103.193 E20.72652
G1 X116.807 Y103.193 E21.58007
G1 X116.807 Y116.747 E22.42986
G1 X117.300 Y117.300 F7800.000
G1 X102.700 Y117.300 E22.95005 F600.000
G1 X102.700 Y102.700 E23.47025
G1 X117.300 Y102.700 E23.99044
G1 X117.300 Y117.240 E24.50849
G1 X116.954 Y117.100 F7800.000
G1 X115.492 Y115.798 F7800.000
G1 X115.798 Y115.492 E24.53612 F1200.000
G1 X115.798 Y114.588 E24.59367
G1 X114.588 Y115.798 E24.70270
G1 X113.685 Y115.798 E24.76026
G1 X115.798 Y113.685 E24.95068
G1 X115.798 Y112.782 E25.00823
G1 X112.782 Y115.798 E25.28005
G1 X111.879 Y115.798 E25.33760
G1 X115.798 Y111.879 E25.69082
G1 X115.798 Y110.976 E25.74837
G1 X110.976 Y115.798 E26.18298
G1 X110.073 Y115.798 E26.24054
G1 X115.798 Y110.073 E26.75654
G1 X115.798 Y109.169 E26.81410
G1 X109.169 Y115.798 E27.41150
G1 X108.266 Y115.798 E27.46905
G1 X115.798 Y108.266 E28.14785
G1 X115.798 Y107.363 E28.20541
G1 X107.363 Y115.798 E28.96560
G1 X106.460 Y115.798 E29.02316
G1 X115.798 Y106.460 E29.86475
G1 X115.798 Y105.557 E29.92230
G1 X105.557 Y115.798 E30.84529
G1 X104.653 Y115.798 E30.90284
G1 X115.798 Y104.653 E31.90722
G1 X115.347 Y104.202 E31.94792
G1 X104.202 Y115.347 E32.95230
G1 X104.202 Y114.443 E33.00986
G1 X114.443 Y104.202 E33.93284
G1 X113.540 Y104.202 E33.99040
G1 X104.202 Y113.540 E34.83198
G1 X104.202 Y112.637 E34.88954
G1 X112.637 Y104.202 E35.64973
G1 X111.734 Y104.202 E35.70729
G1 X104.202 Y111.734 E36.38608
G1 X104.202 Y110.831 E36.44364
G1 X110.831 Y104.202 E37.04104
G1 X109.927 Y104.202 E37.09859
G1 X104.202 Y109.927 E37.61459
G1 X104.202 Y109.024 E37.67215
G1 X109.024 Y104.202 E38.10676
G1 X108.121 Y104.202 E38.16431
G1 X104.202 Y108.121 E38.51752
G1 X104.202 Y107.218 E38.57508
G1 X107.218 Y104.202 E38.84689
G1 X106.315 Y104.202 E38.90445
G1 X104.202 Y106.315 E39.09487
G1 X104.202 Y105.412 E39.15242
G1 X105.412 Y104.202 E39.26145
G1 X104.508 Y104.202 E39.31900
G1 X104.202 Y104.508 E39.34663
G1 Z0.300 F7800.000
G1 X116.179 Y116.179 F7800.000
G1 X103.821 Y116.179 E40.12140 F1200.000
G1 X103.821 Y103.821 E40.89617
G1 X116.179 Y103.821 E41.67094
G1 X116.179 Y116.119 E42.44194
G1 X116.807 Y116.807 F7800.000
G1 X103.193 Y116.807 E43.29549 F1200.000
G1 X103.193 Y103.193 E44.14905
G1 X116.807 Y103.193 E45.00260
G1 X116.807 Y116.747 E45.85239
G1 X117.300 Y117.300 F7800.000
G1 X102.700 Y117.300 E46.37258 F600.000
G1 X102.700 Y102.700 E46.89277
G1 X117.300 Y102.700 E47.41296
G1 X117.300 Y117.240 E47.93102
G1 X116.954 Y117.100 F7800.000
G1 X115.798 Y104.508 F7800.000
G1 X115.492 Y104.202 E47.95865 F1200.000
G1 X114.588 Y104.202 E48.01620
G1 X115.798 Y105.412 E48.12523
G1 X115.798 Y106.315 E48.18278
G1 X113.685 Y104.202 E48.37320
G1 X112.782 Y104.202 E48.43076
G1 X115.798 Y107.218 E48.70258
G1 X115.798 Y108.121 E48.76013
G1 X111.879 Y104.202 E49.11334
G1 X110.976 Y104.202 E49.17090
G1 X115.798 Y109.024 E49.60551
G1 X115.798 Y109.927 E49.66306
G1 X110.073 Y104.202 E50.17907
G1 X109.169 Y104.202 E50.23663
G1 X115.798 Y110.831 E50.83403
G1 X115.798 Y111.734 E50.89158
G1 X108.266 Y104.202 E51.57038
G1 X107.363 Y104.202 E51.62793
G1 X115.798 Y112.637 E52.38813
G1 X115.798 Y113.540 E52.44568
G1 X106.460 Y104.202 E53.28727
G1 X105.557 Y104.202 E53.34483
G1 X115.798 Y114.443 E54.26781
G1 X115.798 Y115.347 E54.32537
G1 X104.653 Y104.202 E55.32975
G1 X104.202 Y104.653 E55.37045
G1 X115.347 Y115.798 E56.37483
G1 X114.443 Y115.798 E56.43238
G1 X104.202 Y105.557 E57.35537
G1 X104.202 Y106.460 E57.41292
G1 X113.540 Y115.798 E58.25451
G1 X112.637 Y115.798 E58.31207
G1 X104.202 Y107.363 E59.07226
G1 X104.202 Y108.266 E59.12981
G1 X111.734 Y115.798 E59.80861
G1 X110.831 Y115.798 E59.86616
G1 X104.202 Y109.169 E60.46356
G1 X104.202 Y110.073 E60.52112
G1 X109.927 Y115.798 E61.03712
G1 X109.024 Y115.798 E61.09468
G1 X104.202 Y110.976 E61.52928
G1 X104.202 Y111.879 E61.58684
G1 X108.121 Y115.798 E61.94005
G1 X107.218 Y115.798 E61.99761
G1 X104.202 Y112.782 E62.26942
G1 X104.202 Y113.685 E62.32698
G1 X106.315 Y115.798 E62.51740
G1 X105.412 Y115.798 E62.57495
G1 X104.202 Y114.588 E62.68397
G1 X104.202 Y115.492 E62.74153
G1 X104.508 Y115.798 E62.76916
G1 Z0.500 F7800.000
G1 X116.179 Y116.179 F7800.000
G1 X103.821 Y116.179 E63.54393 F1200.000
G1 X103.821 Y103.821 E64.31869
G1 X116.179 Y103.821 E65.09346
G1 X116.179 Y116.119 E65.86447
G1 X116.807 Y116.807 F7800.000
G1 X103.193 Y116.807 E66.71802 F1200.000
G1 X103.193 Y103.193 E67.57158
G1 X116.807 Y103.193 E68.42513
G1 X116.807 Y116.747 E69.27492
G1 X117.300 Y117.300 F7800.000
G1 X102.700 Y117.300 E69.79511 F600.000
G1 X102.700 Y102.700 E70.31530
G1 X117.300 Y102.700 E70.83549
G1 X117.300 Y117.240 E71.35355
G1 X116.954 Y117.100 F7800.000
G1 X115.645 Y115.645 F7800.000
G1 X115.645 Y115.610 E71.35573 F1200.000
G1 X115.610 Y115.645 E71.35883
G1 X115.645 Y115.645 E71.36101
G1 X115.645 Y113.833 F7800.000
G1 X115.645 Y112.944 E71.41672 F1200.000
G1 X115.095 Y113.494 E71.46546
G1 X114.394 Y113.306 E71.51095
G1 X113.112 Y114.589 E71.62466
G1 X113.300 Y115.290 E71.67015
G1 X112.944 Y115.645 E71.70165
G1 X114.721 Y115.645 E71.81307
G1 X115.645 Y114.721 E71.89494
G1 X115.645 Y114.332 E71.91937
G1 X115.539 Y113.938 E71.94491
G1 X115.645 Y113.833 E71.95426
G1 X115.645 Y111.039 F7800.000
G1 X115.645 Y108.501 E72.11337 F1200.000
G1 X114.413 Y109.734 E72.22262
G1 X114.601 Y110.434 E72.26810
G1 X113.318 Y111.717 E72.38182
G1 X112.617 Y111.529 E72.42730
G1 X111.335 Y112.812 E72.54102
G1 X111.522 Y113.512 E72.58650
G1 X110.240 Y114.795 E72.70022
G1 X109.539 Y114.607 E72.74570
G1 X108.501 Y115.645 E72.83771
G1 X110.793 Y115.645 E72.98137
G1 X110.684 Y115.239 E73.00770
G1 X111.967 Y113.957 E73.12141
G1 X112.668 Y114.145 E73.16690
G1 X113.950 Y112.862 E73.28061
G1 X113.762 Y112.161 E73.32610
G1 X115.045 Y110.879 E73.43981
G1 X115.645 Y111.039 E73.47876
G1 X115.645 Y106.724 F7800.000
G1 X115.645 Y105.836 E73.53446 F1200.000
G1 X114.619 Y106.862 E73.62542
G1 X113.918 Y106.674 E73.67091
G1 X112.636 Y107.956 E73.78462
G1 X112.823 Y108.657 E73.83011
G1 X111.541 Y109.940 E73.94382
G1 X110.840 Y109.752 E73.98931
G1 X109.558 Y111.034 E74.10302
G1 X109.745 Y111.735 E74.14851
G1 X108.463 Y113.018 E74.26222
G1 X107.762 Y112.830 E74.30771
G1 X106.479 Y114.113 E74.42142
G1 X106.667 Y114.813 E74.46691
G1 X105.836 Y115.645 E74.54063
G1 X106.724 Y115.645 E74.59634
G1 X107.111 Y115.258 E74.63067
G1 X107.812 Y115.445 E74.67616
